!!!!SEGMENT: pl-cz--iii-210--001_engel-jan--litaniae-de-s-joanne-nepomuceno-kyrie.krn
!!!cenid: 17xx:687
!!!COM: Engel, Jan
!!!COM-rismid: pe30009138
!!!CDT: <1772->1788
!!!CNT:
!!!OPR: Litaniae de S. Joanne Nepomuceno
!!!OTL: Kyrie
!!!OMV: 001
!!!PDT:
!!!AGN: Sacred; Mass
!!!SMS-siglum: PL-CZ
!!!SMS-shelfmark: III-210
!!!SMS-shelfwork: 001-001 M
!!!NIFC-rismid:
!!!URL-scan: http://repozytorium.nifc.pl/skany/pl-cz-nut--iii-210
!!!ONB-nifc: UWAGA: części Litanii: UWAGA: części Litanii: Kyrie, Pater de caelis, Sancta Maria,
**kern	**fba	**dynam	**kern	**dynam	**kern	**dynam	**kern	**text	**kern	**text	**dynam	**kern	**text	**dynam	**kern	**text	**dynam	**kern	**kern	**kern	**kern
*part11	*	*part11	*part10	*part10	*part9	*part9	*part8	*part8	*part7	*part7	*part7	*part6	*part6	*part6	*part5	*part5	*part5	*part4	*part3	*part2	*part1
*staff11	*	*	*staff10	*	*staff9	*	*staff8	*staff8	*staff7	*staff7	*	*staff6	*staff6	*	*staff5	*staff5	*	*staff4	*staff3	*staff2	*staff1
*I"Baſso	*	*	*I"Violino Secundo	*	*I"Violino Primo	*	*I"Baſso	*	*I"Tenore	*	*	*I"Alto	*	*	*I"Soprano	*	*	*I"Corno Secundo in D:	*I"Corno 1mo in D:	*I"Flauto 2do	*I"Flauto Imo
*I'B	*	*	*I'Vn II	*	*I'Vn I	*	*I'B	*	*I'T	*	*	*I'A	*	*	*I'S	*	*	*I'Cor II	*I'Cor I	*I'Fl II	*I'Fl I
*clefF4	*	*	*clefG2	*	*clefG2	*	*clefF4	*	*clefC4	*	*	*clefC3	*	*	*clefC1	*	*	*clefG2	*clefG2	*clefG2	*clefG2
*	*	*	*	*	*	*	*	*	*	*	*	*	*	*	*	*	*	*ITrd-1c-2	*ITrd-1c-2	*	*
*k[f#c#]	*	*	*k[f#c#]	*	*k[f#c#]	*	*k[f#c#]	*	*k[c#f#]	*	*	*k[f#c#]	*	*	*k[c#f#]	*	*	*k[f#c#]	*k[f#c#]	*k[f#c#]	*k[f#c#]
*D:	*	*	*D:	*	*D:	*	*D:	*	*D:	*	*	*D:	*	*	*D:	*	*	*	*	*D:	*D:
*M4/4	*	*	*M4/4	*	*M4/4	*	*M4/4	*	*M4/4	*	*	*M4/4	*	*	*M4/4	*	*	*M4/4	*M4/4	*M4/4	*M4/4
*met(c)	*	*	*met(c)	*	*met(c)	*	*met(c)	*	*met(c)	*	*	*met(c)	*	*	*met(c)	*	*	*met(c)	*met(c)	*met(c)	*met(c)
=1	=1	=1	=1	=1	=1	=1	=1	=1	=1	=1	=1	=1	=1	=1	=1	=1	=1	=1	=1	=1	=1
*2\right	*	*	*	*	*	*below	*	*	*	*	*	*4\right	*	*	*	*	*	*	*	*	*
!	!	!	!	!	!	!	!	!	!	!	!	!	!	!	!	!LO:TX:a:t=Allegro	!LO:TX:a:t=Allegro	!	!	!	!
!	!	!	!	!	!	!	!	!	!	!	!	!	!	!	!LO:SIC:o:s=:v:wysokość znaku c#	!	!	!	!	!	!
*tremolo	*	*	*	*	*	*	*	*	*	*	*	*	*	*	*	*	*	*	*	*	*
!	!	!	!	!	!	!	!	!	!	!	!	!LO:SIC:o=:v:caudy przy wszystkich nutach z prawej	!	!	!	!	!	!	!	!	!
!LO:TX:a:t=Allegro Moderato	!	!	!LO:TX:a:i:t=Allegro Moderato	!	!LO:TX:a:i:t=Allegro Moderato	!	!	!	!	!	!	!	!	!	!LO:TX:a:i:t=Allegro moderato	!	!	!	!	!LO:TX:a:B:t=Kyrie Tacet	!LO:TX:a:B:t=Kyrie Tacet
!	!	!	!	!	!	!	!LO:TX:a:i:t=Allegro moderato	!	!LO:TX:a:i:t=Allegro moderato	!	!	!LO:TX:a:i:t=Allegro moderato	!	!	!LO:TX:a:t= cis przy kluczu oktawę wyżej i jako pierwszy	!	!	!	!	!	!LO:TX:a:B:t=Allegro
!	!	!	!LO:TX:t=P:problem:f=f: w całej partii	!LO:DY:a:t=f:	!LO:TX:t=P:problem:f=for w całej partii	!LO:DY:t=for:	!	!	!	!	!LO:DY:t=f.	!	!	!LO:DY:t=fo:	!	!	!	!	!	!	!
8D\L	.	f	4d/ 4dd	f	4d/ 4dd	f	4d\	Ky-	4d\	Ky-	f	4a\	Ky-	f	4dd\	Ky-	.	4f#/	4dd\	1ryy	1ryy
8D\	.	.	.	.	.	.	.	.	.	.	.	.	.	.	.	.	.	.	.	.	.
8D\	.	.	4d/ 4dd	.	4d/ 4dd	.	4d\	-ri-	4d\	-ri-	.	4a\	-ri-	.	4dd\	-ri-	.	4f#/	4dd\	.	.
8D\J	.	.	.	.	.	.	.	.	.	.	.	.	.	.	.	.	.	.	.	.	.
8D\L	.	.	4d/ 4dd	.	4d/ 4dd	.	4d\	-e	4d\	-e	.	4a\	-e	.	4dd\	-e	.	4f#/	4dd\	.	.
8D\	.	.	.	.	.	.	.	.	.	.	.	.	.	.	.	.	.	.	.	.	.
8D\	.	.	8r	.	8r	.	4r	.	8r	.	p	8r	.	.	4r	.	.	4r	4r	.	.
!	!	!	!	!	!	!	!	!	!	!	!	!	!	!LO:DY:p=p.	!	!	!	!	!	!	!
*	*	*	*	*	*	*	*	*	*	*	*	*8\right	*	*	*	*	*	*	*	*	*
8D\J	.	.	8d/	.	8f#/	.	.	.	8d\	e-	.	8f#\	e-	p	.	.	.	.	.	.	.
=2	=2	=2	=2	=2	=2	=2	=2	=2	=2	=2	=2	=2	=2	=2	=2	=2	=2	=2	=2	=2	=2
*	*	*	*	*	*	*	*	*	*2\right	*	*	*2\right	*	*	*	*	*	*	*	*	*
!	!	!	!	!	!	!	!	!	!LO:SIC:o=:v:cauda przy półnucie z prawej	!	!	!	!	!	!	!	!	!	!	!	!
!	!	!	!LO:TX:t=P:problem:p=p: w całej partii	!LO:DY:a:t=p:	!	!LO:DY:p=pia	!	!	!	!	!	!	!	!	!LO:TX:a:t=1	!	!LO:TX:a:t=1	!	!	!	!
8D\L	.	p	(8d/L	p	(8f#/L	p	1r	.	2d\	-lei-	f	2f#\	-lei-	.	1r	.	.	1r	1r	1ryy	1ryy
8D\	.	.	8f#/)	.	8a/)	.	.	.	.	.	.	.	.	.	.	.	.	.	.	.	.
8D\	.	.	(8d/	.	(8f#/	.	.	.	.	.	.	.	.	.	.	.	.	.	.	.	.
8D\J	.	.	8f#/J)	.	8a/J)	.	.	.	.	.	.	.	.	.	.	.	.	.	.	.	.
8D\L	.	.	(8d/L	.	(8f#/L	.	.	.	2d\	-son	.	2f#\	-son	.	.	.	.	.	.	.	.
8D\	.	.	8f#/)	.	8a/)	.	.	.	.	.	.	.	.	.	.	.	.	.	.	.	.
8D\	.	.	(8a/	.	(8dd/	.	.	.	.	.	.	.	.	.	.	.	.	.	.	.	.
8D\J	.	.	8dd/J)	.	8ff#/J)	.	.	.	.	.	.	.	.	.	.	.	.	.	.	.	.
=3	=3	=3	=3	=3	=3	=3	=3	=3	=3	=3	=3	=3	=3	=3	=3	=3	=3	=3	=3	=3	=3
!	!	!	!	!	!	!	!	!	!	!	!	!	!	!	!LO:SIC:o:s=:v:znak powtórzenia tekstu nietypowy; pozioma, ciągła kreska; global	!	!	!	!	!	!
*	*	*	*	*	*	*	*	*ij	*	*	*	*	*	*	*	*ij	*	*	*	*	*
!	!	!	!	!	!	!LO:DY:rj	!	!	!	!	!LO:DY:t=f.	!	!	!	!	!	!	!	!	!	!
8D\L	.	f	4d/ 4dd	f	4d/ 4a 4ff#	f	4d\	Ky-	4d\	Ky-	f	4a\	Ky-	f	4ff#\	Ky-	.	4f#/	4dd\	1ryy	1ryy
8D\	.	.	.	.	.	.	.	.	.	.	.	.	.	.	.	.	.	.	.	.	.
8D\	.	.	4d/ 4dd	.	4d/ 4a 4ff#	.	4d\	-ri-	4d\	-ri-	.	4a\	-ri-	.	4ff#\	-ri-	.	4f#/	4dd\	.	.
8D\J	.	.	.	.	.	.	.	.	.	.	.	.	.	.	.	.	.	.	.	.	.
8D\L	.	.	4d/ 4dd	.	4d/ 4a 4ff#	.	4d\	-e	4d\	-e	.	4a\	-e	.	4ff#\	-e	.	4f#/	4dd\	.	.
8D\	.	.	.	.	.	.	.	.	.	.	.	.	.	.	.	.	.	.	.	.	.
8D\	.	.	8r	.	8r	.	4r	.	8r	.	p	8r	.	.	4r	.	.	4r	4r	.	.
8D\J	.	.	8f#/	.	8a\	.	.	.	8f#\	e-	.	8a\	e-	.	.	.	.	.	.	.	.
*	*	*	*	*	*	*	*	*Xij	*	*	*	*	*	*	*	*Xij	*	*	*	*	*
!	!	!	!	!	!	!	!	!	!LO:LB:g=original	!	!	!	!	!	!	!	!	!	!	!	!
=4	=4	=4	=4	=4	=4	=4	=4	=4	=4	=4	=4	=4	=4	=4	=4	=4	=4	=4	=4	=4	=4
!	!	!	!	!	!	!	!	!	!	!	!	!	!	!	!LO:TX:a:t=1	!	!	!	!LO:TX:a:t=1	!	!
8D\L	.	p	(8f#/L	p	(8a\L	p	1r	.	2f#\	-lei-	.	2a\	-lei-	.	1r	.	.	1r	1r	1ryy	1ryy
8D\	.	.	8a/)	.	8dd\)	.	.	.	.	.	.	.	.	.	.	.	.	.	.	.	.
8D\	.	.	(8f#/	.	(8a\	.	.	.	.	.	.	.	.	.	.	.	.	.	.	.	.
8D\J	.	.	8a/J)	.	8dd\J)	.	.	.	.	.	.	.	.	.	.	.	.	.	.	.	.
!	!	!	!LO:LB:g=original	!	!LO:LB:g=original	!	!	!	!	!	!	!	!	!	!	!	!	!	!	!	!
8D\L	.	.	(8f#/L	.	(8a\L	.	.	.	2f#\	-son	.	2a\	-son	.	.	.	.	.	.	.	.
8D\	.	.	8a/)	.	8dd\)	.	.	.	.	.	.	.	.	.	.	.	.	.	.	.	.
8D\	.	.	(8dd/	.	(8ff#\	.	.	.	.	.	.	.	.	.	.	.	.	.	.	.	.
8D\J	.	.	8ff#/J)	.	8aa\J)	.	.	.	.	.	.	.	.	.	.	.	.	.	.	.	.
!LO:LB:g=original	!	!	!	!	!	!	!LO:LB:g=original	!	!	!	!	!LO:LB:g=original	!	!	!LO:LB:g=original	!	!	!	!	!	!
=5	=5	=5	=5	=5	=5	=5	=5	=5	=5	=5	=5	=5	=5	=5	=5	=5	=5	=5	=5	=5	=5
*	*	*	*	*	*	*	*	*	*	*	*	*	*ij	*	*	*	*	*	*	*	*
!	!	!	!	!	!	!	!	!	!	!	!LO:DY:rj	!	!	!	!	!	!	!	!	!	!
8D\L	.	f	4d/ 4a 4ff#	f	4d/ 4a 4aa	f	4d\	Ky-	4f#\	Ky-	f	4dd\	Ky-	.	4aa\	Ky-	.	4f#/	4dd\	1ryy	1ryy
8D\	.	.	.	.	.	.	.	.	.	.	.	.	.	.	.	.	.	.	.	.	.
8D\	.	.	4d/ 4a 4ff#	.	4d/ 4a 4aa	.	4d\	-ri-	4f#\	-ri-	.	4dd\	-ri-	.	4aa\	-ri-	.	4f#/	4dd\	.	.
8D\J	.	.	.	.	.	.	.	.	.	.	.	.	.	.	.	.	.	.	.	.	.
8D\L	.	.	4d/ 4a 4ff#	.	4d/ 4a 4aa	.	4d\	-e	4f#\	-e	.	4dd\	-e	.	4aa\	-e	.	4f#/	4dd\	.	.
8D\	.	.	.	.	.	.	.	.	.	.	.	.	.	.	.	.	.	.	.	.	.
8D\	.	.	8r	.	8r	.	4r	.	8r	.	.	8r	.	.	4r	.	.	4r	4r	.	.
8D\J	.	.	8f#/	p	8dd\	p	.	.	8f#\	e-	.	8dd\	e-	.	.	.	.	.	.	.	.
=6	=6	=6	=6	=6	=6	=6	=6	=6	=6	=6	=6	=6	=6	=6	=6	=6	=6	=6	=6	=6	=6
!	!	!	!	!	!	!	!	!	!	!	!	!	!	!	!	!	!	!	!LO:TX:a:t=1	!	!
8D\L	.	p	(8f#/L	.	(8dd\L	.	1r	.	2f#\	-lei-	.	2dd\	-lei-	.	1r	.	.	1r	1r	1ryy	1ryy
8D\	.	.	8a/)	.	8ff#\)	.	.	.	.	.	.	.	.	.	.	.	.	.	.	.	.
8D\	.	.	8f#'/	.	(8dd\	.	.	.	.	.	.	.	.	.	.	.	.	.	.	.	.
8D\J	.	.	8a'/J	.	8ff#\J)	.	.	.	.	.	.	.	.	.	.	.	.	.	.	.	.
8D\L	.	.	(8f#/L	.	(8dd\L	.	.	.	2f#\	-son	.	2dd\	-son	.	.	.	.	.	.	.	.
8D\	.	.	8a/)	.	8ff#\)	.	.	.	.	.	.	.	.	.	.	.	.	.	.	.	.
8D\	.	.	8f#'/	.	(8aa\	.	.	.	.	.	.	.	.	.	.	.	.	.	.	.	.
8D\J	.	.	8a/J	f	8ddd\J)	.	.	.	.	.	.	.	.	.	.	.	.	.	.	.	.
*Xtremolo	*	*	*	*	*	*	*	*	*	*	*	*	*Xij	*	*	*	*	*	*	*	*
=7	=7	=7	=7	=7	=7	=7	=7	=7	=7	=7	=7	=7	=7	=7	=7	=7	=7	=7	=7	=7	=7
*	*	*	*	*	*	*	*	*	*	*	*	*	*	*	*	*	*	*	*2\right	*	*
!	!	!	!	!	!	!	!	!	!	!	!	!	!	!	!	!	!	!	!LO:SIC:o=:v:cauda przy półnucie z prawej	!	!
8AA\L	.	f	4a/ 4ee	.	4a\ 4ccc#	f	4.A\	Ky-	4.c#\	Ky-	.	4.a\	Ky-	.	4.ee\	Ky-	.	2a/	2ee\	1ryy	1ryy
!LO:TX:t=P:problem:mixed beam	!	!	!	!	!	!	!	!	!	!	!	!	!	!	!	!	!	!	!	!	!
8G\	2	.	.	.	.	.	.	.	.	.	.	.	.	.	.	.	.	.	.	.	.
8G\	.	.	4a/ 4ee	.	4a\ 4ccc#	.	.	.	.	.	.	.	.	.	.	.	.	.	.	.	.
8G\J	.	.	.	.	.	.	8A\	-ri-	8c#\	-ri-	.	8a\	-ri-	.	8ee\	-ri-	.	.	.	.	.
*tremolo	*	*	*	*	*	*	*	*	*	*	*	*	*	*	*	*	*	*	*	*	*
8F#\L	.	.	4d/ 4a 4ff#	.	8ddd\L	.	4d\	-e	4d\	-e	.	4a\	-e	.	4ff#\	-e	.	4dd\	4ff#\	.	.
8F#\	.	.	.	.	16aa\L	.	.	.	.	.	.	.	.	.	.	.	.	.	.	.	.
.	.	.	.	.	16gg\JJ	.	.	.	.	.	.	.	.	.	.	.	.	.	.	.	.
8F#\	.	.	4r	.	8ff#\L	.	4r	.	8r	.	.	4r	.	.	8r	.	.	4r	4r	.	.
8F#\J	.	.	.	.	16ee\L	.	.	.	8d\	e-	.	.	.	.	8ff#\	e-	.	.	.	.	.
*Xtremolo	*	*	*	*	*	*	*	*	*	*	*	*	*	*	*	*	*	*	*	*	*
.	.	.	.	.	16dd\JJ	.	.	.	.	.	.	.	.	.	.	.	.	.	.	.	.
=8	=8	=8	=8	=8	=8	=8	=8	=8	=8	=8	=8	=8	=8	=8	=8	=8	=8	=8	=8	=8	=8
!	!	!	!	!	!	!	!LO:TX:a:t=2	!	!	!	!	!	!	!	!	!	!	!	!	!	!
4E\	6	p	8a/	p	(8cc#\L	p	0r	.	4c#\	-lei-	.	0r	.	.	4ee\	-lei-	.	0r	0r	1ryy	1ryy
.	.	.	4a/	.	8ee\)	.	.	.	.	.	.	.	.	.	.	.	.	.	.	.	.
4D\	.	.	.	.	(8dd\	.	.	.	4d\	.	.	.	.	.	4ff#\	.	.	.	.	.	.
.	.	.	4a/	.	8ff#\J)	.	.	.	.	.	.	.	.	.	.	.	.	.	.	.	.
4C#\	6 5	.	.	.	(8ee\L	.	.	.	4e\	.	.	.	.	.	4gg\	.	.	.	.	.	.
.	.	.	4a/	.	8gg\)	.	.	.	.	.	.	.	.	.	.	.	.	.	.	.	.
4D\	.	.	.	.	(8ff#\	.	.	.	4f#\	.	.	.	.	.	4aa\	.	.	.	.	.	.
*	*	*	*8\right	*	*	*	*	*	*	*	*	*	*	*	*	*	*	*	*	*	*
!	!	!	!LO:SIC:o=:v:=caudy wszystkich nut zawsze po prawej	!	!	!	!	!	!	!	!	!	!	!	!	!	!	!	!	!	!
.	.	.	8ff#\	.	8aa\J)	.	.	.	.	.	.	.	.	.	.	.	.	.	.	.	.
!	!	!	!	!	!LO:LB:g=original	!	!	!	!	!	!	!	!	!	!	!	!	!	!	!	!
=9	=9	=9	=9	=9	=9	=9	=9	=9	=9	=9	=9	=9	=9	=9	=9	=9	=9	=9	=9	=9	=9
*	*	*	*4\right	*	*	*	*	*	*	*	*	*	*	*	*	*	*	*	*	*	*
4AA/	6 4	.	4ff#\	.	(4aa\	.	.	.	4f#\	.	.	.	.	.	4aa\	.	.	.	.	1ryy	1ryy
4AA#X/	7	.	4ee\	.	4gg\)	.	.	.	4e\	.	.	.	.	.	4gg\	-son	.	.	.	.	.
4BB/	.	.	4dd\	.	4ff#\	.	.	.	4d\	-son	.	.	.	.	4ff#\	.	.	.	.	.	.
4r	.	.	4r	.	4r	.	.	.	4r	.	.	.	.	.	4r	.	.	.	.	.	.
!LO:LB:g=original	!	!	!LO:LB:g=original	!	!	!	!	!	!LO:LB:g=original	!	!	!	!	!	!	!	!	!	!	!	!
=10	=10	=10	=10	=10	=10	=10	=10	=10	=10	=10	=10	=10	=10	=10	=10	=10	=10	=10	=10	=10	=10
*	*	*	*	*	*	*	*	*ij	*	*ij	*	*	*ij	*	*	*	*	*	*	*	*
8AA\L	.	f	4a/ 4ee	f	4a\ 4ccc#	f	4.A\	Ky-	4.c#\	Ky-	.	4.a\	Ky-	.	4.ee\	Ky-	.	2a/	2ee\	1ryy	1ryy
!LO:TX:t=P:problem:mixed beam	!	!	!	!	!	!	!	!	!	!	!	!	!	!	!	!	!	!	!	!	!
8G\	2	.	.	.	.	.	.	.	.	.	.	.	.	.	.	.	.	.	.	.	.
8G\	.	.	4a/ 4ee	.	4a\ 4ccc#	.	.	.	.	.	.	.	.	.	.	.	.	.	.	.	.
8G\J	.	.	.	.	.	.	8A\	-ri-	8c#\	-ri-	.	8a\	-ri-	.	8ee\	-ri-	.	.	.	.	.
*tremolo	*	*	*	*	*	*	*	*	*	*	*	*	*	*	*	*	*	*	*	*	*
8F#\L	.	.	4d/ 4a 4ff#	.	8ddd\L	.	4d\	-e	4d\	-e	.	(4a\	-e	.	4ff#\	-e	.	4dd\	4ff#\	.	.
8F#\	.	.	.	.	16aa\L	.	.	.	.	.	.	.	.	.	.	.	.	.	.	.	.
.	.	.	.	.	16gg\JJ	.	.	.	.	.	.	.	.	.	.	.	.	.	.	.	.
.	.	.	.	.	8qqgg/	.	.	.	.	.	.	.	.	.	.	.	.	.	.	.	.
!	!	!	!	!	!	!	!	!	!	!	!LO:DY:t=p.	!	!	!	!	!	!	!	!	!	!
8F#\	.	.	4r	.	8ff#\L	.	4r	.	8r	.	p	8r	.	.	4r	.	.	4r	4r	.	.
*	*	*	*	*	*	*	*	*Xij	*	*	*	*	*Xij	*	*	*	*	*	*	*	*
8F#\J	.	.	.	.	16ee\L	.	.	.	8d\	e-	.	8a\)	e-	.	.	.	.	.	.	.	.
*Xtremolo	*	*	*	*	*	*	*	*	*	*	*	*	*	*	*	*	*	*	*	*	*
.	.	.	.	.	16dd\JJ	.	.	.	.	.	.	.	.	.	.	.	.	.	.	.	.
!	!	!	!	!	!	!	!	!	!	!	!	!	!	!	!LO:LB:g=original	!	!	!	!LO:LB:g=original	!	!
=11	=11	=11	=11	=11	=11	=11	=11	=11	=11	=11	=11	=11	=11	=11	=11	=11	=11	=11	=11	=11	=11
!	!	!	!	!	!	!	!LO:TX:a:t=2	!	!	!	!	!	!	!	!	!	!	!	!	!	!
4E\	6	p	8a/	p	(8cc#\L	p	0r	.	4c#\	-lei-	.	1a	-lei-	.	1r	.	.	0r	0r	1ryy	1ryy
.	.	.	4a/	.	8ee\)	.	.	.	.	.	.	.	.	.	.	.	.	.	.	.	.
4D\	.	.	.	.	(8dd\	.	.	.	(4d\	.	.	.	.	.	.	.	.	.	.	.	.
.	.	.	4a/	.	8ff#\J)	.	.	.	.	.	.	.	.	.	.	.	.	.	.	.	.
4C#\	6 5	.	.	.	(8ee\L	.	.	.	4e\)	.	.	.	.	.	.	.	.	.	.	.	.
.	.	.	4a/	.	8gg\)	.	.	.	.	.	.	.	.	.	.	.	.	.	.	.	.
4Cn\	6 4	.	.	.	(8ff#\	.	.	.	4f#\	.	.	.	.	.	.	.	.	.	.	.	.
.	.	.	8a/	.	8aa\J)	.	.	.	.	.	.	.	.	.	.	.	.	.	.	.	.
!	!	!	!	!	!	!	!	!	!	!	!	!LO:LB:g=original	!	!	!	!	!	!	!	!	!
=12	=12	=12	=12	=12	=12	=12	=12	=12	=12	=12	=12	=12	=12	=12	=12	=12	=12	=12	=12	=12	=12
4BB/	6	.	(8b\L	.	(4aa\	.	.	.	(4g\	.	.	(4b\	.	.	1r	.	.	.	.	1ryy	1ryy
.	.	.	8gg\)	.	.	.	.	.	.	.	.	.	.	.	.	.	.	.	.	.	.
4AA/	6 n	.	(8ff#\	.	4gg\)	.	.	.	4f#\)	.	.	4ccn\	.	.	.	.	.	.	.	.	.
.	.	.	8aa\J)	.	.	.	.	.	.	.	.	.	.	.	.	.	.	.	.	.	.
4GG/	.	.	4gg\	.	4ff#\	.	.	.	4g\	-son	.	4dd\)	-so	.	.	.	.	.	.	.	.
4r	.	.	4r	.	4r	.	.	.	4r	.	.	4r	.	.	.	.	.	.	.	.	.
*	*	*	*	*	*	*	*	*	*	*Xij	*	*	*	*	*	*	*	*	*	*	*
!	!	!	!	!	!	!	!	!	!	!	!	!	!	!	!	!	!	!LO:LB:g=original	!	!	!
=13	=13	=13	=13	=13	=13	=13	=13	=13	=13	=13	=13	=13	=13	=13	=13	=13	=13	=13	=13	=13	=13
*tremolo	*	*	*	*	*	*	*	*	*	*	*	*	*	*	*	*	*	*	*	*	*
*	*	*	*	*	*	*	*	*	*	*	*	*	*	*	*2\right	*	*	*	*	*	*
8G\L	6	f	(8a#X/L	f	(8aa#X\L	.	4.G-\	Ky-	2r	.	.	2r	.	.	4r	.	.	1d	1dd	1ryy	1ryy
8G\	.	.	8b/)	.	8bb\)	.	.	.	.	.	.	.	.	.	.	.	.	.	.	.	.
!	!	!	!	!	!	!	!	!	!	!	!	!	!	!	!LO:SIC:o=:v:cauda przy półnucie z prawej	!	!	!	!	!	!
8G\	.	.	(8a#/	.	(8aa#\	.	.	.	.	.	.	.	.	.	2ee\	Ky-	.	.	.	.	.
8G\J	.	.	8b/J)	.	8bb\)	.	8G\	-ri-	.	.	.	.	.	.	.	.	.	.	.	.	.
8G\L	.	.	(8a#/L	.	(8aa#\	.	4G\	-e	4r	.	.	2b\	e-	f	.	.	.	.	.	.	.
8G\	.	.	8b/J)	.	8bb\J)	.	.	.	.	.	.	.	.	.	.	.	.	.	.	.	.
8G\	.	.	(16an/LL	.	(16aan\LL	.	4G\	e	8.B\L	e-	.	.	.	.	4ee\	-ri-	.	.	.	.	.
.	.	.	16g/)	.	16gg\)	.	.	.	.	.	.	.	.	.	.	.	.	.	.	.	.
8G\J	.	.	(16f#/	.	16ff#\	.	.	.	.	.	.	.	.	.	.	.	.	.	.	.	.
.	.	.	16e/JJ)	.	16ee\JJ	.	.	.	16A\Jk	.	.	.	.	.	.	.	.	.	.	.	.
!	!	!	!	!	!LO:LB:g=original	!	!LO:LB:g=original	!	!	!	!	!	!	!	!	!	!	!	!	!	!
=14	=14	=14	=14	=14	=14	=14	=14	=14	=14	=14	=14	=14	=14	=14	=14	=14	=14	=14	=14	=14	=14
*	*	*	*	*	*	*	*2\right	*	*	*	*	*	*	*	*	*	*	*	*	*	*
8G\L	.	.	(8d#X/L	.	(8dd#\L	.	2G\	lei-	2G\	-lei-	.	2b\	-lei-	.	4ee\	-e	.	1d	1dd	1ryy	1ryy
8G\	.	.	8e/)	.	8ee\)	.	.	.	.	.	.	.	.	.	.	.	.	.	.	.	.
8G\	.	.	(8d#/	.	(8dd#\	.	.	.	.	.	.	.	.	.	4ee\	e-	.	.	.	.	.
8G\J	.	.	8e/J)	.	8ee\J)	.	.	.	.	.	.	.	.	.	.	.	.	.	.	.	.
8G\L	.	.	(8d#/L	.	(8dd#\L	.	2G\	-son	2G\	.	.	2b\	-son	.	4ee\	-lei-	.	.	.	.	.
8G\	.	.	8e/)	.	8ee\)	.	.	.	.	.	.	.	.	.	.	.	.	.	.	.	.
8G\	.	.	(8f#/	.	(8ff#\	.	.	.	.	.	.	.	.	.	4ee\	-son	.	.	.	.	.
8G\J	.	.	8g/J)	.	8gg\J)	.	.	.	.	.	.	.	.	.	.	.	.	.	.	.	.
!	!	!	!	!	!	!	!	!	!LO:LB:g=original	!	!	!	!	!	!	!	!	!	!	!	!
=15	=15	=15	=15	=15	=15	=15	=15	=15	=15	=15	=15	=15	=15	=15	=15	=15	=15	=15	=15	=15	=15
*	*	*	*	*	*	*	*	*ij	*	*	*	*	*ij	*	*	*	*	*	*	*	*
8F#\L	6	.	(8g#X/L	.	(8gg#X\L	.	4.F#\	Ky-	4.d\	.	.	4.a\	e-	.	4.dd\	Ky-	.	1d	1dd	1ryy	1ryy
8F#\	.	.	8a/)	.	8aa\)	.	.	.	.	.	.	.	.	.	.	.	.	.	.	.	.
8F#\	.	.	(8g#/	.	(8gg#\	.	.	.	.	.	.	.	.	.	.	.	.	.	.	.	.
8F#\J	.	.	8a/J)	.	8aa\)	.	8F#\	-ri-	8d\	.	.	8a\	-lei-	.	8dd\	-ri-	.	.	.	.	.
!	!	!	!LO:LB:g=original	!	!	!	!	!	!	!	!	!	!	!	!	!	!	!	!	!	!
8F#\L	.	.	(8g#/L	.	(8gg#\	.	4F#\	-e	4d\	-son	.	4a\	-son	.	4dd\	-e	.	.	.	.	.
8F#\	.	.	8a/J)	.	8aa\J)	.	.	.	.	.	.	.	.	.	.	.	.	.	.	.	.
8F#\	.	.	16gn/LL	.	(16ggn\LL	.	4F#\	e	4d\	.	.	4a\	e-	.	16gg\LL	.	.	.	.	.	.
.	.	.	16f#/	.	16ff#\)	.	.	.	.	.	.	.	.	.	16ff#\	.	.	.	.	.	.
8F#\J	.	.	16e/	.	16ee\	.	.	.	.	.	.	.	.	.	16ee\	.	.	.	.	.	.
.	.	.	16d/JJ	.	16dd\JJ	.	.	.	.	.	.	.	.	.	16dd\JJ	e-	.	.	.	.	.
!LO:LB:g=original	!	!	!	!	!	!	!	!	!	!	!	!	!	!	!	!	!	!	!	!	!
=16	=16	=16	=16	=16	=16	=16	=16	=16	=16	=16	=16	=16	=16	=16	=16	=16	=16	=16	=16	=16	=16
8F#\L	.	.	(8c#/L	.	(8cc#\L	.	2F#\	lei-	2f#\	e-	.	1a	-lei-	.	1dd	-lei-	.	1d	1dd	1ryy	1ryy
8F#\	.	.	8d/)	.	8dd\)	.	.	.	.	.	.	.	.	.	.	.	.	.	.	.	.
8F#\	.	.	(8c#/	.	(8cc#\	.	.	.	.	.	.	.	.	.	.	.	.	.	.	.	.
8F#\J	.	.	8d/J)	.	8dd\J)	.	.	.	.	.	.	.	.	.	.	.	.	.	.	.	.
8F#\L	.	.	(8c#/L	.	(8cc#\L	.	2F#\	-son	2f#\	-lei-	.	.	.	.	.	.	.	.	.	.	.
8F#\	.	.	8d/)	.	8dd\)	.	.	.	.	.	.	.	.	.	.	.	.	.	.	.	.
8F#\	.	.	(8e/	.	(8ee\	.	.	.	.	.	.	.	.	.	.	.	.	.	.	.	.
8F#\J	.	.	8f#/J)	.	8ff#\J)	.	.	.	.	.	.	.	.	.	.	.	.	.	.	.	.
*Xtremolo	*	*	*	*	*	*	*	*Xij	*	*	*	*	*	*	*	*	*	*	*	*	*
=17	=17	=17	=17	=17	=17	=17	=17	=17	=17	=17	=17	=17	=17	=17	=17	=17	=17	=17	=17	=17	=17
8E\L	6	.	8c#'/L	f	4.a\ 4.gg	.	4r	.	4e\	-son	.	4a\	-son	.	4cc#\	-son	.	4a/	4ee\	1ryy	1ryy
8A\	.	.	8A'/J	.	.	.	.	.	.	.	.	.	.	.	.	.	.	.	.	.	.
8E\	.	.	8c#'/L	.	.	.	8r	.	8r	.	.	8r	.	.	8r	.	.	4r	4r	.	.
*	*	*	*	*	*	*	*	*	*	*ij	*	*	*Xij	*	*	*	*	*	*	*	*
8A\J	.	.	8A'/J	.	16aa\LL	.	8A\	e-	8c#\	e-	.	8a\	e-	.	8ee\	e-	.	.	.	.	.
.	.	.	.	.	16gg\JJ	.	.	.	.	.	.	.	.	.	.	.	.	.	.	.	.
8D\L	.	.	8d'/L	.	4ff#\	.	4d\	-lei-	2d\	-lei-	.	2a\	-lei-	.	2ff#\	-lei-	.	8r	8r	.	.
8A\	.	.	8A'/J	.	.	.	.	.	.	.	.	.	.	.	.	.	.	8dd\L	8ff#\L	.	.
8D\	.	.	8d'/L	.	4r	.	4D\	.	.	.	.	.	.	.	.	.	.	8dd\	8ff#\	.	.
8A\J	.	.	8A'/J	.	.	.	.	.	.	.	.	.	.	.	.	.	.	8dd\J	8ff#\J	.	.
!	!	!	!	!	!	!	!	!	!	!	!	!LO:LB:g=original	!	!	!	!	!	!	!	!	!
=18	=18	=18	=18	=18	=18	=18	=18	=18	=18	=18	=18	=18	=18	=18	=18	=18	=18	=18	=18	=18	=18
*	*	*	*	*	*2\right	*	*	*	*	*	*	*	*	*	*	*	*	*	*	*	*
*	*	*	*	*	*^	*	*	*	*	*	*	*	*	*	*	*	*	*	*	*	*
*	*	*	*	*	*tremolo	*	*	*	*	*	*	*	*	*	*	*	*	*	*	*	*	*
!	!	!	!LO:SIC:o:s=:v:takt zapisany powtórką	!	!LO:SIC:o=:v:cauda przy półnucie z prawej	!	!	!	!	!	!	!	!	!	!	!	!	!	!	!	!	!
8G\L	2	.	8c#'/Lyy	f	2ccc#\	16a\LL	.	4A\	-son	4c#\	-son	.	4a\	-son	.	4ee\	-son	.	4a/	4ee\	1ryy	1ryy
.	.	.	.	.	.	16a\	.	.	.	.	.	.	.	.	.	.	.	.	.	.	.	.
8A\	.	.	8A'/Jyy	.	.	16a\	.	.	.	.	.	.	.	.	.	.	.	.	.	.	.	.
.	.	.	.	.	.	16a\	.	.	.	.	.	.	.	.	.	.	.	.	.	.	.	.
8G\	.	.	8c#'/Lyy	.	.	16a\	.	8r	.	8r	.	.	8r	.	.	8r	.	.	4r	4r	.	.
.	.	.	.	.	.	16a\	.	.	.	.	.	.	.	.	.	.	.	.	.	.	.	.
*	*	*	*	*	*	*	*	*	*ij	*	*	*	*	*	*	*	*ij	*	*	*	*	*
8A\J	.	.	8A'/Jyy	.	.	16a\	.	8A\	e-	8A\	e-	.	8g\	e-	.	8ee\	e-	.	.	.	.	.
.	.	.	.	.	.	16a\JJ	.	.	.	.	.	.	.	.	.	.	.	.	.	.	.	.
!	!	!	!	!	!	!	!	!	!	!	!	!	!	!	!	!	!LO:LB:g=original	!	!	!	!	!
8F#\L	6	.	8d'/Lyy	.	4ddd\	4a\	.	4d\	-lei-	2A\	-lei-	.	2f#\	-lei-	.	2dd\	-lei-	.	8r	8r	.	.
8A\	.	.	8A'/Jyy	.	.	.	.	.	.	.	.	.	.	.	.	.	.	.	8dd\L	8ff#\L	.	.
8F#\	.	.	8d'/Lyy	.	4ryy	8rc	.	4D\	.	.	.	.	.	.	.	.	.	.	8dd\	8ff#\	.	.
8A\J	.	.	8A'/Jyy	.	.	8a\	.	.	.	.	.	.	.	.	.	.	.	.	8dd\J	8ff#\J	.	.
*	*	*	*	*	*v	*v	*	*	*	*	*	*	*	*	*	*	*	*	*	*	*	*
!	!	!	!	!	!	!LO:LB:g=original	!	!LO:LB:g=original	!	!LO:LB:g=original	!	!	!	!	!	!	!	!	!	!	!
=19	=19	=19	=19	=19	=19	=19	=19	=19	=19	=19	=19	=19	=19	=19	=19	=19	=19	=19	=19	=19	=19
!	!	!	!	!	!	!	!	!	!LO:SIC:o=:v: pomiędzy taktami 18 i 19 wpisany i wykreślony jeszcze jeden takt (nuty tożsame z t. 19)	!	!	!	!	!	!	!	!	!	!	!	!
8E\L	6	.	8c#/L	.	4.a\ 4.gg	.	4A\	-son	4A\	-son	.	4e\	-son	.	4cc#\	-son	.	4a/	4ee\	1ryy	1ryy
8A\	.	.	8A/	.	.	.	.	.	.	.	.	.	.	.	.	.	.	.	.	.	.
8E\	.	.	8c#/	.	.	.	8r	.	8r	.	.	8r	.	.	8r	.	.	4r	4r	.	.
*	*	*	*	*	*	*	*	*Xij	*	*	*	*	*ij	*	*	*	*	*	*	*	*
8A\J	.	.	8A/J	.	16aa\LL	.	8A\	e-	8e\	e-	.	8a\	e-	.	16ee\LL	e-	.	.	.	.	.
.	.	.	.	.	16gg\JJ	.	.	.	.	.	.	.	.	.	16gg\JJ	.	.	.	.	.	.
!	!	!	!	!	!	!	!	!	!	!	!	!	!	!	!LO:SIC:o=:v:na główce nuty plama	!	!LO:DY:b	!	!	!	!
8D\L	.	.	8d/L	.	4ff#\	.	4d\	-lei-	2d\	-lei-	.	2a\	-lei-	.	2ff#\	-lei-	f	8r	8r	.	.
8A\	.	.	8A/	.	.	.	.	.	.	.	.	.	.	.	.	.	.	8dd\L	8ff#\L	.	.
!	!	!	!	!	!	!	!LO:SIC:o=:v:pod nutą wydrabana/wymazana sylaba 'son'	!	!	!	!	!	!	!	!	!	!	!	!	!	!
8D\	.	.	8d/	.	4r	.	4D/	.	.	.	.	.	.	.	.	.	.	8dd\	8ff#\	.	.
8A\J	.	.	8A/J	.	.	.	.	.	.	.	.	.	.	.	.	.	.	8dd\J	8ff#\J	.	.
=20	=20	=20	=20	=20	=20	=20	=20	=20	=20	=20	=20	=20	=20	=20	=20	=20	=20	=20	=20	=20	=20
*	*	*	*	*	*^	*	*	*	*	*	*	*	*	*	*	*	*	*	*	*	*
8G\L	2	.	8e/L	.	2ccc#\	2a\	.	4A\	-son	4c#\	-son	.	4a\	-son	.	4ee\	-son	.	4a/	4ee\	1ryy	1ryy
8A\	.	.	8A/	.	.	.	.	.	.	.	.	.	.	.	.	.	.	.	.	.	.	.
8G\	.	.	8e/	.	.	.	.	8r	.	8r	.	.	8r	.	.	8r	.	.	4r	4r	.	.
*	*	*	*	*	*	*	*	*	*ij	*	*	*	*	*	*	*	*Xij	*	*	*	*	*
8A\J	.	.	8A/J	.	.	.	.	8A\	e-	8A\	e-	.	8g\	e-	.	8ee\	e-	.	.	.	.	.
8F#\L	6	.	8d/L	.	4ddd\	4a\	.	4d\	-lei-	2A\	-lei-	.	2f#\	-lei-	.	2dd\	-lei-	.	8r	8r	.	.
8A\	.	.	8A/	.	.	.	.	.	.	.	.	.	.	.	.	.	.	.	8dd\L	8ff#\L	.	.
8F#\	.	.	8d/	.	4ryy	8rc	.	4D\	.	.	.	.	.	.	.	.	.	.	8dd\	8ff#\	.	.
8A\J	.	.	8A/J	.	.	8a\	.	.	.	.	.	.	.	.	.	.	.	.	8dd\J	8ff#\J	.	.
*	*	*	*	*	*v	*v	*	*	*	*	*	*	*	*	*	*	*	*	*	*	*	*
!LO:LB:g=original	!	!	!	!	!	!	!	!	!	!	!	!	!	!	!	!	!	!	!	!	!
=21	=21	=21	=21	=21	=21	=21	=21	=21	=21	=21	=21	=21	=21	=21	=21	=21	=21	=21	=21	=21	=21
4E\	6 4	.	4A/ 4e	.	(8g#X/L	p	4A\	-son	4A\	-son	.	4e\	-son	.	4cc#\	-son	.	4a/	4ee\	1ryy	1ryy
.	.	.	.	.	8a/)	.	.	.	.	.	.	.	.	.	.	.	.	.	.	.	.
4r	.	.	4r	.	(8b/	.	4r	.	4r	.	.	4r	.	.	4r	.	.	4r	4r	.	.
.	.	.	.	.	8cc#/J)	.	.	.	.	.	.	.	.	.	.	.	.	.	.	.	.
2r	.	.	2r	.	(8dd\L	.	2r	.	2r	.	.	2r	.	.	2r	.	.	2r	2r	.	.
.	.	.	.	.	8b\)	.	.	.	.	.	.	.	.	.	.	.	.	.	.	.	.
.	.	.	.	.	(8ee\	.	.	.	.	.	.	.	.	.	.	.	.	.	.	.	.
.	.	.	.	.	8dd\J)	.	.	.	.	.	.	.	.	.	.	.	.	.	.	.	.
*	*	*	*	*	*	*	*	*Xij	*	*Xij	*	*	*Xij	*	*	*	*	*	*	*	*
!	!	!	!LO:LB:g=original	!	!	!	!	!	!	!	!	!	!	!	!	!	!	!LO:LB:g=original	!	!	!
=22	=22	=22	=22	=22	=22	=22	=22	=22	=22	=22	=22	=22	=22	=22	=22	=22	=22	=22	=22	=22	=22
1r	.	.	8r	.	4cc#\	.	0r	.	0r	.	.	0r	.	.	0r	.	.	0r	0r	1ryy	1ryy
.	.	.	(8a\L	.	.	.	.	.	.	.	.	.	.	.	.	.	.	.	.	.	.
.	.	.	8b\	.	2aa\	.	.	.	.	.	.	.	.	.	.	.	.	.	.	.	.
.	.	.	8cc#\J)	.	.	.	.	.	.	.	.	.	.	.	.	.	.	.	.	.	.
.	.	.	(8dd\L	.	.	.	.	.	.	.	.	.	.	.	.	.	.	.	.	.	.
.	.	.	8b\)	.	.	.	.	.	.	.	.	.	.	.	.	.	.	.	.	.	.
.	.	.	(8ee\	.	4gg#X\	.	.	.	.	.	.	.	.	.	.	.	.	.	.	.	.
.	.	.	8dd\J)	.	.	.	.	.	.	.	.	.	.	.	.	.	.	.	.	.	.
=23	=23	=23	=23	=23	=23	=23	=23	=23	=23	=23	=23	=23	=23	=23	=23	=23	=23	=23	=23	=23	=23
8r	.	.	4cc#\	.	4aa\	.	.	.	.	.	.	.	.	.	.	.	.	.	.	1ryy	1ryy
(8A\L	.	.	.	.	.	.	.	.	.	.	.	.	.	.	.	.	.	.	.	.	.
*	*	*	*2\right	*	*	*	*	*	*	*	*	*	*	*	*	*	*	*	*	*	*
8B\	.	.	2aa\	.	16aa\LL	.	.	.	.	.	.	.	.	.	.	.	.	.	.	.	.
.	.	.	.	.	16gg#X\	.	.	.	.	.	.	.	.	.	.	.	.	.	.	.	.
8c#\J)	.	.	.	.	16ff#\	.	.	.	.	.	.	.	.	.	.	.	.	.	.	.	.
.	.	.	.	.	16ee\JJ	.	.	.	.	.	.	.	.	.	.	.	.	.	.	.	.
8d\L	6 5	.	.	.	2bbT\	.	.	.	.	.	.	.	.	.	.	.	.	.	.	.	.
8B\	.	.	.	.	.	.	.	.	.	.	.	.	.	.	.	.	.	.	.	.	.
8e\	#	.	4gg#X\	.	.	.	.	.	.	.	.	.	.	.	.	.	.	.	.	.	.
8d\J	.	.	.	.	.	.	.	.	.	.	.	.	.	.	.	.	.	.	.	.	.
!	!	!	!	!	!	!	!	!	!	!	!	!	!	!	!	!	!	!	!LO:LB:g=original	!	!
=24	=24	=24	=24	=24	=24	=24	=24	=24	=24	=24	=24	=24	=24	=24	=24	=24	=24	=24	=24	=24	=24
*	*	*	*tremolo	*	*	*	*	*	*	*	*	*	*	*	*	*	*	*	*	*	*
8c#\L	6	f	16aa\LL	f	16aa\LL	f	4.A\	Ky-	4r	.	.	4r	.	.	4.ee\	Ky-	.	2a/	2aa\	1ryy	1ryy
.	.	.	16aa\	.	16aa\	.	.	.	.	.	.	.	.	.	.	.	.	.	.	.	.
16A\L	.	.	16aa\	.	16aa\	.	.	.	.	.	.	.	.	.	.	.	.	.	.	.	.
16B\JJ	.	.	16aa\	.	16aa\JJ	.	.	.	.	.	.	.	.	.	.	.	.	.	.	.	.
8c#\L	.	.	16aa\	.	16ccc#\LL	.	.	.	2a\	e-	.	2cc#\	e-	.	.	.	.	.	.	.	.
.	.	.	16aa\	.	16ccc#\	.	.	.	.	.	.	.	.	.	.	.	.	.	.	.	.
8A\J	.	.	16aa\	.	16ccc#\	.	8A\	-ri-	.	.	.	.	.	.	8ee\	-ri-	.	.	.	.	.
.	.	.	16aa\	.	16ccc#\	.	.	.	.	.	.	.	.	.	.	.	.	.	.	.	.
*	*	*	*	*	*	*	*	*	*	*	*	*	*	*	*	*	*	*2\right	*	*	*
8e\L	6 4	.	16aa\	.	16ccc#\	.	4A\	-e	.	.	.	.	.	.	4ee\	-e	.	2ee\	2ee\	.	.
.	.	.	16aa\	.	16ccc#\	.	.	.	.	.	.	.	.	.	.	.	.	.	.	.	.
16E\L	.	.	16aa\	.	16ccc#\	.	.	.	.	.	.	.	.	.	.	.	.	.	.	.	.
16F#\JJ	.	.	16aa\JJ	.	16ccc#\JJ	.	.	.	.	.	.	.	.	.	.	.	.	.	.	.	.
8G#X\L	6	.	16gg#\	.	16bb\	.	4r	.	4r	.	.	4r	.	.	4r	.	.	.	.	.	.
.	.	.	16gg#\	.	16bb\	.	.	.	.	.	.	.	.	.	.	.	.	.	.	.	.
8E\J	.	.	16gg#\	.	16bb\	.	.	.	.	.	.	.	.	.	.	.	.	.	.	.	.
.	.	.	16gg#\JJ	.	16bb\JJ	.	.	.	.	.	.	.	.	.	.	.	.	.	.	.	.
!	!	!	!	!	!LO:LB:g=original	!	!	!	!	!	!	!LO:LB:g=original	!	!	!	!	!	!	!	!	!
=25	=25	=25	=25	=25	=25	=25	=25	=25	=25	=25	=25	=25	=25	=25	=25	=25	=25	=25	=25	=25	=25
8F#\L	9 4	.	16gg\LL	.	16bb\LL	.	2F#\	-le-	4g\	.	.	4b\	.	.	4dd\	-lei-	.	2ff#\	2ff#\	1ryy	1ryy
.	.	.	16gg\	.	16bb\	.	.	.	.	.	.	.	.	.	.	.	.	.	.	.	.
16F#\L	.	.	16gg\	.	16bb\	.	.	.	.	.	.	.	.	.	.	.	.	.	.	.	.
16G\JJ	.	.	16gg\JJ	.	16bb\JJ	.	.	.	.	.	.	.	.	.	.	.	.	.	.	.	.
8A\L	6	.	16ff#\LL	.	16aa\LL	.	.	.	2f#\	.	.	2a\	.	.	2.cc#\	.	.	.	.	.	.
.	.	.	16ff#\	.	16aa\	.	.	.	.	.	.	.	.	.	.	.	.	.	.	.	.
8F#\J	.	.	16ff#\	.	16aa\	.	.	.	.	.	.	.	.	.	.	.	.	.	.	.	.
.	.	.	16ff#\	.	16aa\	.	.	.	.	.	.	.	.	.	.	.	.	.	.	.	.
8c#\L	6 4	.	16ff#\	.	16aa\	.	4c#\	.	.	.	.	.	.	.	.	.	.	2r	2r	.	.
.	.	.	16ff#\	.	16aa\	.	.	.	.	.	.	.	.	.	.	.	.	.	.	.	.
!LO:TX:t=P:problem:mixed beam	!	!	!	!	!	!	!	!	!	!	!	!	!	!	!	!	!	!	!	!	!
16C#\L	.	.	16ff#\	.	16aa\	.	.	.	.	.	.	.	.	.	.	.	.	.	.	.	.
16D\JJ	.	.	16ff#\JJ	.	16aa\JJ	.	.	.	.	.	.	.	.	.	.	.	.	.	.	.	.
8E/L	6	.	16ee\LL	.	16gg#X\LL	.	4C#/	.	4e\	.	.	4g#X\	.	.	.	.	.	.	.	.	.
.	.	.	16ee\	.	16gg#X\	.	.	.	.	.	.	.	.	.	.	.	.	.	.	.	.
8C#/J	.	.	16ee\	.	16gg#X\	.	.	.	.	.	.	.	.	.	.	.	.	.	.	.	.
.	.	.	16ee\JJ	.	16gg#X\JJ	.	.	.	.	.	.	.	.	.	.	.	.	.	.	.	.
!LO:LB:g=original	!	!	!	!	!	!	!LO:LB:g=original	!	!LO:LB:g=original	!	!	!	!	!	!	!	!	!	!	!	!
=26	=26	=26	=26	=26	=26	=26	=26	=26	=26	=26	=26	=26	=26	=26	=26	=26	=26	=26	=26	=26	=26
8D/L	9 4	.	16ee\LL	.	16gg\LL	.	2D\	-son	4e\	.	.	4g\	.	.	4b\	.	.	0r	0r	1ryy	1ryy
.	.	.	16ee\	.	16gg\	.	.	.	.	.	.	.	.	.	.	.	.	.	.	.	.
16D/L	.	.	16ee\	.	16gg\	.	.	.	.	.	.	.	.	.	.	.	.	.	.	.	.
16E/JJ	.	.	16ee\JJ	.	16gg\JJ	.	.	.	.	.	.	.	.	.	.	.	.	.	.	.	.
8F#\L	6	.	16dd\LL	.	16ff#\LL	.	.	.	2d\	.	.	2f#\	.	.	2.a\	.	.	.	.	.	.
.	.	.	16dd\	.	16ff#\	.	.	.	.	.	.	.	.	.	.	.	.	.	.	.	.
8D\J	.	.	16dd\	.	16ff#\	.	.	.	.	.	.	.	.	.	.	.	.	.	.	.	.
.	.	.	16dd\	.	16ff#\	.	.	.	.	.	.	.	.	.	.	.	.	.	.	.	.
8A\L	6 4	.	16dd\	.	16ff#\	.	4A\	e-	.	.	.	.	.	.	.	.	.	.	.	.	.
.	.	.	16dd\	.	16ff#\	.	.	.	.	.	.	.	.	.	.	.	.	.	.	.	.
!LO:TX:t=P:problem:mixed beam	!	!	!	!	!	!	!	!	!	!	!	!	!	!	!	!	!	!	!	!	!
16AA\L	.	.	16dd\	.	16ff#\	.	.	.	.	.	.	.	.	.	.	.	.	.	.	.	.
16BB\JJ	.	.	16dd\JJ	.	16ff#\JJ	.	.	.	.	.	.	.	.	.	.	.	.	.	.	.	.
8C#/L	6	.	16cc#\LL	.	16ee\LL	.	4AA/	-le-	4c#\	.	.	4e\	.	.	.	.	.	.	.	.	.
.	.	.	16cc#\	.	16ee\	.	.	.	.	.	.	.	.	.	.	.	.	.	.	.	.
8AA/J	.	.	16cc#\	.	16ee\	.	.	.	.	.	.	.	.	.	.	.	.	.	.	.	.
.	.	.	16cc#\JJ	.	16ee\JJ	.	.	.	.	.	.	.	.	.	.	.	.	.	.	.	.
!	!	!	!	!	!	!	!	!	!	!	!	!	!	!	!LO:LB:g=original	!	!	!	!	!	!
=27	=27	=27	=27	=27	=27	=27	=27	=27	=27	=27	=27	=27	=27	=27	=27	=27	=27	=27	=27	=27	=27
8BB/L	9 4	.	16cc#\LL	.	16ee\LL	.	2BB/	-son	4c#\	.	.	4e\	-son	.	4g#X\	.	.	.	.	1ryy	1ryy
.	.	.	16cc#\	.	16ee\	.	.	.	.	.	.	.	.	.	.	.	.	.	.	.	.
16BB/L	.	.	16cc#\	.	16ee\	.	.	.	.	.	.	.	.	.	.	.	.	.	.	.	.
16C#/JJ	.	.	16cc#\JJ	.	16ee\JJ	.	.	.	.	.	.	.	.	.	.	.	.	.	.	.	.
8D/L	6	.	16b\LL	.	16dd\LL	.	.	.	2B\	.	.	2dd\	e-	.	2.ff#\	.	.	.	.	.	.
.	.	.	16b\	.	16dd\	.	.	.	.	.	.	.	.	.	.	.	.	.	.	.	.
8BB/J	.	.	16b\	.	16dd\	.	.	.	.	.	.	.	.	.	.	.	.	.	.	.	.
.	.	.	16b\	.	16dd\	.	.	.	.	.	.	.	.	.	.	.	.	.	.	.	.
8F#\L	6 4	.	16b\	.	16dd\	.	2F#\	e-	.	.	.	.	.	.	.	.	.	.	.	.	.
.	.	.	16b\	.	16dd\	.	.	.	.	.	.	.	.	.	.	.	.	.	.	.	.
16F#\L	.	.	16b\	.	16dd\	.	.	.	.	.	.	.	.	.	.	.	.	.	.	.	.
16G#X\JJ	.	.	16b\JJ	.	16dd\JJ	.	.	.	.	.	.	.	.	.	.	.	.	.	.	.	.
8A\L	6	.	16a\LL	.	16cc#\LL	.	.	.	4A\	.	.	4cc#\	-lei-	.	.	.	.	.	.	.	.
.	.	.	16a\	.	16cc#\	.	.	.	.	.	.	.	.	.	.	.	.	.	.	.	.
8F#\J	.	.	16a\	.	16cc#\	.	.	.	.	.	.	.	.	.	.	.	.	.	.	.	.
.	.	.	16a\JJ	.	16cc#\JJ	.	.	.	.	.	.	.	.	.	.	.	.	.	.	.	.
=28	=28	=28	=28	=28	=28	=28	=28	=28	=28	=28	=28	=28	=28	=28	=28	=28	=28	=28	=28	=28	=28
8G#X/L	9 4	.	16a\LL	.	16cc#\LL	.	2G#X\	-lei-	4A\	.	.	4cc#\	.	.	4ee\	.	.	1r	1r	1ryy	1ryy
.	.	.	16a\	.	16cc#\	.	.	.	.	.	.	.	.	.	.	.	.	.	.	.	.
!LO:TX:t=P:problem:mixed beam	!	!	!	!	!	!	!	!	!	!	!	!	!	!	!	!	!	!	!	!	!
16GG#X/L	.	.	16a\	.	16cc#\	.	.	.	.	.	.	.	.	.	.	.	.	.	.	.	.
16AA/JJ	.	.	16a\JJ	.	16cc#\JJ	.	.	.	.	.	.	.	.	.	.	.	.	.	.	.	.
8BB/L	6\	.	16g#X\LL	.	16b\LL	.	.	.	4G#X\	.	.	2b\	.	.	2.dd#X\	.	.	.	.	.	.
.	.	.	16g#\	.	16b\	.	.	.	.	.	.	.	.	.	.	.	.	.	.	.	.
8GG#/J	.	.	16g#\	.	16b\	.	.	.	.	.	.	.	.	.	.	.	.	.	.	.	.
.	.	.	16g#\JJ	.	16b\	.	.	.	.	.	.	.	.	.	.	.	.	.	.	.	.
8D#X\L	6 4	.	16f#/LL	.	16b\	.	2D#X\	.	2F#/	.	.	.	.	.	.	.	.	.	.	.	.
.	.	.	16f#/	.	16b\	.	.	.	.	.	.	.	.	.	.	.	.	.	.	.	.
16D#\L	.	.	16f#/	.	16b\	.	.	.	.	.	.	.	.	.	.	.	.	.	.	.	.
16E\JJ	.	.	16f#/	.	16b\JJ	.	.	.	.	.	.	.	.	.	.	.	.	.	.	.	.
8F#\L	6\	.	16f#/	.	16a\LL	.	.	.	.	.	.	4a\	.	.	.	.	.	.	.	.	.
.	.	.	16f#/	.	16a\	.	.	.	.	.	.	.	.	.	.	.	.	.	.	.	.
8D#\J	.	.	16f#/	.	16a\	.	.	.	.	.	.	.	.	.	.	.	.	.	.	.	.
.	.	.	16f#/JJ	.	16a\JJ	.	.	.	.	.	.	.	.	.	.	.	.	.	.	.	.
*	*	*	*Xtremolo	*	*	*	*	*	*	*	*	*	*	*	*	*	*	*	*	*	*
!	!	!	!LO:LB:g=original	!	!	!	!	!	!	!	!	!	!	!	!	!	!	!	!	!	!
=29	=29	=29	=29	=29	=29	=29	=29	=29	=29	=29	=29	=29	=29	=29	=29	=29	=29	=29	=29	=29	=29
4E\	#	.	4e/	.	8.g#X\L	p	4E\	-son	4E/	-son	.	4g#X\	-son	.	4ee\	-son	.	4ee\	4ee\	1ryy	1ryy
.	.	.	.	.	16b\K	.	.	.	.	.	.	.	.	.	.	.	.	.	.	.	.
4r	.	.	4r	.	8.a\	.	4r	.	4r	.	.	4r	.	.	4r	.	.	4r	4r	.	.
.	.	.	.	.	16cc#\Jk	.	.	.	.	.	.	.	.	.	.	.	.	.	.	.	.
2r	.	.	2r	.	8.b\L	.	2r	.	2r	.	.	2r	.	.	2r	.	.	2r	2r	.	.
.	.	.	.	.	16dd\K	.	.	.	.	.	.	.	.	.	.	.	.	.	.	.	.
.	.	.	.	.	8.cc#\	.	.	.	.	.	.	.	.	.	.	.	.	.	.	.	.
.	.	.	.	.	16ee\Jk	.	.	.	.	.	.	.	.	.	.	.	.	.	.	.	.
!LO:LB:g=original	!	!	!	!	!	!	!	!	!	!	!	!	!	!	!	!	!	!	!	!	!
=30	=30	=30	=30	=30	=30	=30	=30	=30	=30	=30	=30	=30	=30	=30	=30	=30	=30	=30	=30	=30	=30
*tremolo	*	*	*	*	*	*	*	*	*	*	*	*	*	*	*	*	*	*	*	*	*
!	!	!	!	!	!	!	!	!	!	!	!	!	!	!	!	!	!	!	!LO:TX:a:t=15	!	!
8A\L	6 5	.	2f#/ 2cc#	f	4.ee\	f	4.A#X\	Ky-	4.c#\	Ky-	.	4.f#\	Ky-	.	4.ee\	Ky-	.	00r	00r	1ryy	1ryy
8A\	.	.	.	.	.	.	.	.	.	.	.	.	.	.	.	.	.	.	.	.	.
8A\	.	.	.	.	.	.	.	.	.	.	.	.	.	.	.	.	.	.	.	.	.
8A\J	.	.	.	.	(16ff#\LL	.	8A#\	-ri-	8c#\	-ri-	.	8f#\	-ri-	.	8ee\	-ri-	.	.	.	.	.
*Xtremolo	*	*	*	*	*	*	*	*	*	*	*	*	*	*	*	*	*	*	*	*	*
.	.	.	.	.	16ee\JJ)	.	.	.	.	.	.	.	.	.	.	.	.	.	.	.	.
4B\	#	.	4b\	.	4dd#X\	.	4B\	-e	4B\	-e	.	4f#\	-e	.	4dd#X\	-e	.	.	.	.	.
4r	.	.	4r	.	4r	.	4r	.	4r	.	.	4r	.	.	4r	.	.	.	.	.	.
!	!	!	!	!	!LO:LB:g=original	!	!	!	!	!	!	!LO:LB:g=original	!	!	!	!	!	!	!	!	!
=31	=31	=31	=31	=31	=31	=31	=31	=31	=31	=31	=31	=31	=31	=31	=31	=31	=31	=31	=31	=31	=31
1r	.	.	1r	.	8.f#/L	p	1r	.	1r	.	.	1r	.	.	1r	.	.	.	.	1ryy	1ryy
.	.	.	.	.	16a/K	.	.	.	.	.	.	.	.	.	.	.	.	.	.	.	.
.	.	.	.	.	8.g#X/	.	.	.	.	.	.	.	.	.	.	.	.	.	.	.	.
.	.	.	.	.	16b/Jk	.	.	.	.	.	.	.	.	.	.	.	.	.	.	.	.
.	.	.	.	.	8.a/L	.	.	.	.	.	.	.	.	.	.	.	.	.	.	.	.
.	.	.	.	.	16cc#/K	.	.	.	.	.	.	.	.	.	.	.	.	.	.	.	.
.	.	.	.	.	8.b/	.	.	.	.	.	.	.	.	.	.	.	.	.	.	.	.
.	.	.	.	.	16dd/Jk	.	.	.	.	.	.	.	.	.	.	.	.	.	.	.	.
!	!	!	!	!	!	!	!	!	!LO:LB:g=original	!	!	!	!	!	!	!	!	!	!	!	!
=32	=32	=32	=32	=32	=32	=32	=32	=32	=32	=32	=32	=32	=32	=32	=32	=32	=32	=32	=32	=32	=32
!LO:TX:t=P:problem:mixed beam	!	!	!	!	!	!	!	!	!	!	!	!	!	!	!	!	!	!	!	!	!
*tremolo	*	*	*	*	*	*	*	*	*	*	*	*	*	*	*	*	*	*	*	*	*
*	*	*	*	*	*	*	*	*	*	*ij	*	*	*	*	*	*ij	*	*	*	*	*
8G#X\L	6 5	.	2e\ 2b	.	4.dd\	f	4.G#X\	e-	4.B\	Ky-	.	4.e\	Ky-	.	4.ddn\	Ky-	.	.	.	1ryy	1ryy
8G#\	.	.	.	.	.	.	.	.	.	.	.	.	.	.	.	.	.	.	.	.	.
8G#\	.	.	.	.	.	.	.	.	.	.	.	.	.	.	.	.	.	.	.	.	.
!	!	!	!	!	!	!	!LO:LB:g=original	!	!	!	!	!	!	!	!	!	!	!	!	!	!
8G#\J	.	.	.	.	(16ee\LL	.	8G#\	-lei-	8B\	-ri-	.	8e\	-ri-	.	8dd\	-ri-	.	.	.	.	.
*Xtremolo	*	*	*	*	*	*	*	*	*	*	*	*	*	*	*	*	*	*	*	*	*
.	.	.	.	.	16dd\JJ)	.	.	.	.	.	.	.	.	.	.	.	.	.	.	.	.
4A\	.	.	4a\	.	4cc#\	.	4A\	-son	4A\	-e	.	4e\	-e	.	4cc#\	-e	.	.	.	.	.
4r	.	.	4r	.	4r	.	4r	.	4r	.	.	4r	.	.	4r	.	.	.	.	.	.
*	*	*	*	*	*	*	*	*	*	*Xij	*	*	*	*	*	*Xij	*	*	*	*	*
=33	=33	=33	=33	=33	=33	=33	=33	=33	=33	=33	=33	=33	=33	=33	=33	=33	=33	=33	=33	=33	=33
1r	.	.	1r	.	8.e/L	p	1r	.	1r	.	.	1r	.	.	1r	.	.	.	.	1ryy	1ryy
.	.	.	.	.	16g#X/K	.	.	.	.	.	.	.	.	.	.	.	.	.	.	.	.
.	.	.	.	.	8.f#/	.	.	.	.	.	.	.	.	.	.	.	.	.	.	.	.
.	.	.	.	.	16a/Jk	.	.	.	.	.	.	.	.	.	.	.	.	.	.	.	.
.	.	.	.	.	8.g#/L	.	.	.	.	.	.	.	.	.	.	.	.	.	.	.	.
.	.	.	.	.	16b/K	.	.	.	.	.	.	.	.	.	.	.	.	.	.	.	.
.	.	.	.	.	8.a/	.	.	.	.	.	.	.	.	.	.	.	.	.	.	.	.
.	.	.	.	.	16ccn/Jk	.	.	.	.	.	.	.	.	.	.	.	.	.	.	.	.
=34	=34	=34	=34	=34	=34	=34	=34	=34	=34	=34	=34	=34	=34	=34	=34	=34	=34	=34	=34	=34	=34
!LO:TX:t=P:problem:mixed beam	!	!	!	!	!	!	!	!	!	!	!	!	!	!	!	!	!	!	!	!	!
*tremolo	*	*	*	*	*	*	*	*	*	*	*	*	*ij	*	*	*	*	*	*	*	*
8d#X\L	7 n	.	4.a/	f	4.ccn\	f	4.d#X\	Ky-	4.A\	e-	.	4.f#\	Ky-	.	4.ccn\	Ky-	.	00r	00r	1ryy	1ryy
8d#\	.	.	.	.	.	.	.	.	.	.	.	.	.	.	.	.	.	.	.	.	.
8d#\	.	.	.	.	.	.	.	.	.	.	.	.	.	.	.	.	.	.	.	.	.
8d#\J	.	.	(16b/LL	.	(16dd\LL	.	8d#\	-ri-	8A\	-lei-	.	8f#\	-ri-	.	(16dd\LL	-ri-	.	.	.	.	.
*Xtremolo	*	*	*	*	*	*	*	*	*	*	*	*	*	*	*	*	*	*	*	*	*
.	.	.	16a/JJ)	.	16cc\JJ)	.	.	.	.	.	.	.	.	.	16cc\JJ)	.	.	.	.	.	.
4e\	#	.	4g#X/	.	4b\	.	4e\	-e	4G#X/	-son	.	4e\	-e	.	4b\	-e	.	.	.	.	.
!	!	!	!LO:TX:a:i:t=Repe;	!	!	!	!	!	!	!	!	!	!	!	!	!	!	!	!	!	!
4r	.	.	4r	.	4r	.	4r	.	4r	.	.	4r	.	.	4r	.	.	.	.	.	.
!	!	!	!	!	!	!	!	!	!	!	!	!	!	!	!LO:LB:g=original	!	!	!	!	!	!
=35	=35	=35	=35	=35	=35	=35	=35	=35	=35	=35	=35	=35	=35	=35	=35	=35	=35	=35	=35	=35	=35
1r	.	.	4.a/	p	4.ccn\	p	1r	.	1r	.	.	1r	.	.	1r	.	.	.	.	1ryy	1ryy
.	.	.	(16b/LL	.	(16dd\LL	.	.	.	.	.	.	.	.	.	.	.	.	.	.	.	.
.	.	.	16a/JJ)	.	16cc\JJ)	.	.	.	.	.	.	.	.	.	.	.	.	.	.	.	.
.	.	.	4g#X/	.	4b\	.	.	.	.	.	.	.	.	.	.	.	.	.	.	.	.
.	.	.	4r	.	4r	.	.	.	.	.	.	.	.	.	.	.	.	.	.	.	.
!	!	!	!	!	!LO:LB:g=original	!	!	!	!	!	!	!	!	!	!	!	!	!	!	!	!
=36	=36	=36	=36	=36	=36	=36	=36	=36	=36	=36	=36	=36	=36	=36	=36	=36	=36	=36	=36	=36	=36
!LO:TX:t=P:problem:mixed beam	!	!	!	!	!	!	!	!	!	!	!	!	!	!	!	!	!	!	!	!	!
*tremolo	*	*	*	*	*	*	*	*ij	*	*	*	*	*	*	*	*	*	*	*	*	*
!	!	!	!LO:SIC:o:s=:v:takty 36-37 zapisane powtórką	!	!	!	!	!	!	!	!	!	!	!	!	!	!	!	!	!	!
8D#X\L	4 n	.	4.a/yy	fyy	4.ccn\	f	4.D#X\	Ky-	4.A/	Ky-	.	4.f#\	Ky-	.	4.ccn\	Ky-	.	.	.	1ryy	1ryy
8D#\	.	.	.	.	.	.	.	.	.	.	.	.	.	.	.	.	.	.	.	.	.
8D#\	.	.	.	.	.	.	.	.	.	.	.	.	.	.	.	.	.	.	.	.	.
8D#\J	.	.	(16b/LLyy	.	(16dd\LL	.	8D#\	-ri-	8A/	-ri-	.	8f#\	-ri-	.	(16dd\LL	-ri-	.	.	.	.	.
*Xtremolo	*	*	*	*	*	*	*	*	*	*	*	*	*	*	*	*	*	*	*	*	*
.	.	.	16a/JJ)yy	.	16cc\JJ)	.	.	.	.	.	.	.	.	.	16cc\JJ)	.	.	.	.	.	.
4E\	.	.	4g#X/yy	.	4b\	.	4E\	-e	4G#X/	-e	.	4e\	-e	.	4b\	-e	.	.	.	.	.
4r	.	.	4ryy	.	4r	.	4r	.	4r	.	.	4r	.	.	4r	.	.	.	.	.	.
*	*	*	*	*	*	*	*	*Xij	*	*	*	*	*Xij	*	*	*	*	*	*	*	*
=37	=37	=37	=37	=37	=37	=37	=37	=37	=37	=37	=37	=37	=37	=37	=37	=37	=37	=37	=37	=37	=37
!LO:TX:a:t=10	!	!	!	!	!	!	!LO:TX:a:t=10	!	!	!	!	!	!	!	!	!	!	!	!	!	!
00r	.	.	4.a/yy	pyy	4.ccn\	p	00r	.	0r	.	.	00r	.	.	0r	.	.	.	.	1ryy	1ryy
.	.	.	(16b/LLyy	.	(16dd\LL	.	.	.	.	.	.	.	.	.	.	.	.	.	.	.	.
.	.	.	16a/JJ)yy	.	16cc\JJ)	.	.	.	.	.	.	.	.	.	.	.	.	.	.	.	.
.	.	.	4g#X/yy	.	4b\	.	.	.	.	.	.	.	.	.	.	.	.	.	.	.	.
.	.	.	4ryy	.	4r	.	.	.	.	.	.	.	.	.	.	.	.	.	.	.	.
=38	=38	=38	=38	=38	=38	=38	=38	=38	=38	=38	=38	=38	=38	=38	=38	=38	=38	=38	=38	=38	=38
.	.	.	1r	.	1r	.	.	.	.	.	.	.	.	.	.	.	.	00r	00r	1ryy	1ryy
!	!	!	!LO:LB:g=original	!	!	!	!	!	!	!	!	!	!	!	!	!	!	!	!	!	!
=39	=39	=39	=39	=39	=39	=39	=39	=39	=39	=39	=39	=39	=39	=39	=39	=39	=39	=39	=39	=39	=39
*	*	*	*tremolo	*	*	*	*	*	*	*	*	*	*	*	*	*	*	*	*	*	*
.	.	.	8A/L	.	8A/L	p	.	.	1r	.	.	.	.	.	4.a\	Ky-	.	.	.	1ryy	1ryy
.	.	.	8A/	.	8A/	.	.	.	.	.	.	.	.	.	.	.	.	.	.	.	.
.	.	.	8A/	.	8A/	.	.	.	.	.	.	.	.	.	.	.	.	.	.	.	.
.	.	.	8A/	.	8A/J	.	.	.	.	.	.	.	.	.	8a\	-ri-	.	.	.	.	.
.	.	.	8A/	.	8A/L	.	.	.	.	.	.	.	.	.	4a\	-e	.	.	.	.	.
.	.	.	8A/	.	8A/	.	.	.	.	.	.	.	.	.	.	.	.	.	.	.	.
.	.	.	8A/	.	8A/	.	.	.	.	.	.	.	.	.	(8dd\L	e-	.	.	.	.	.
.	.	.	8A/J	.	8A/J	.	.	.	.	.	.	.	.	.	8cc#\J)	.	.	.	.	.	.
=40	=40	=40	=40	=40	=40	=40	=40	=40	=40	=40	=40	=40	=40	=40	=40	=40	=40	=40	=40	=40	=40
!	!	!	!	!	!	!	!	!	!LO:TX:a:t=Solo	!	!	!	!	!	!	!	!	!	!	!	!
*	*	*	*	*	*	*	*	*	*	*ij	*	*	*	*	*	*	*	*	*	*	*
.	.	.	8A/L	.	8AL	.	.	.	4.A\	Ky-	.	.	.	.	2cc#\	-lei-	.	.	.	1ryy	1ryy
.	.	.	8A/	.	8A	.	.	.	.	.	.	.	.	.	.	.	.	.	.	.	.
.	.	.	8A/	.	8A	.	.	.	.	.	.	.	.	.	.	.	.	.	.	.	.
.	.	.	8A/	.	8A	.	.	.	8A\	-ri-	.	.	.	.	.	.	.	.	.	.	.
!	!	!	!	!	!	!	!	!	!LO:LB:g=original	!	!	!	!	!	!	!	!	!	!	!	!
.	.	.	8A/	.	8A	.	.	.	4A\	-e	.	.	.	.	4b\	.	.	.	.	.	.
.	.	.	8A/	.	8A	.	.	.	.	.	.	.	.	.	.	.	.	.	.	.	.
*	*	*	*	*	*	*	*	*	*	*Xij	*	*	*	*	*	*	*	*	*	*	*
.	.	.	8A/	.	8A	.	.	.	(8d\L	e-	.	.	.	.	8ff#\L	.	.	.	.	.	.
.	.	.	8A/J	.	8AJ	.	.	.	8c#\J)	.	.	.	.	.	8ee\J	.	.	.	.	.	.
=41	=41	=41	=41	=41	=41	=41	=41	=41	=41	=41	=41	=41	=41	=41	=41	=41	=41	=41	=41	=41	=41
00r	.	.	8A/L	.	8AL	.	00r	.	(2c#\	-lei-	.	00r	.	.	2ee\	.	.	.	.	1ryy	1ryy
.	.	.	8A/	.	8A	.	.	.	.	.	.	.	.	.	.	.	.	.	.	.	.
.	.	.	8A/	.	8A	.	.	.	.	.	.	.	.	.	.	.	.	.	.	.	.
.	.	.	8A/	.	8A	.	.	.	.	.	.	.	.	.	.	.	.	.	.	.	.
.	.	.	8A/	.	8A	.	.	.	4B\)	.	.	.	.	.	4dd\	-son	.	.	.	.	.
.	.	.	8A/	.	8A	.	.	.	.	.	.	.	.	.	.	.	.	.	.	.	.
.	.	.	8A/	.	8A	.	.	.	4f#\	.	.	.	.	.	4aa\	e-	.	.	.	.	.
.	.	.	8A/J	.	8AJ	.	.	.	.	.	.	.	.	.	.	.	.	.	.	.	.
=42	=42	=42	=42	=42	=42	=42	=42	=42	=42	=42	=42	=42	=42	=42	=42	=42	=42	=42	=42	=42	=42
!	!	!	!	!	!	!	!	!	!	!	!	!	!	!	!	!	!	!LO:SIC:o:s=:v:źle zapisana pauza	!LO:SIC:o:s=:v:źle zapisana pauza	!	!
!	!	!	!	!	!	!	!	!	!	!	!	!	!	!	!	!	!	!LO:N:vis=00	!LO:N:vis=00	!	!
.	.	.	8A/L	.	8AL	.	.	.	(4e\	.	.	.	.	.	4gg#X\	-lei-	.	0r	0r	1ryy	1ryy
.	.	.	8A/	.	8A	.	.	.	.	.	.	.	.	.	.	.	.	.	.	.	.
.	.	.	8A/	.	8A	.	.	.	4d\)	.	.	.	.	.	4ff#\	.	.	.	.	.	.
.	.	.	8A/	.	8A	.	.	.	.	.	.	.	.	.	.	.	.	.	.	.	.
.	.	.	8A/	.	8A	.	.	.	4c#\	.	.	.	.	.	4ee\	.	.	.	.	.	.
.	.	.	8A/	.	8A	.	.	.	.	.	.	.	.	.	.	.	.	.	.	.	.
.	.	.	8A/	.	8A	.	.	.	4B\	.	.	.	.	.	4dd\	.	.	.	.	.	.
.	.	.	8A/J	.	8AJ	.	.	.	.	.	.	.	.	.	.	.	.	.	.	.	.
*	*	*	*Xtremolo	*	*	*	*	*	*	*	*	*	*	*	*	*	*	*	*	*	*
!	!	!	!	!	!	!	!	!	!	!	!	!	!	!	!LO:LB:g=original	!	!	!	!	!	!
=43	=43	=43	=43	=43	=43	=43	=43	=43	=43	=43	=43	=43	=43	=43	=43	=43	=43	=43	=43	=43	=43
*	*	*	*tremolo	*	*	*	*	*	*	*	*	*	*	*	*	*	*	*	*	*	*
!	!	!	!LO:SIC:o:s=:v:takty 43-46 zapisane powtórką	!	!	!	!	!	!	!	!	!	!	!	!	!	!	!	!	!	!
.	.	.	8A/Lyy	.	8AL	.	.	.	2A\	.	.	.	.	.	2cc#\	.	.	.	.	1ryy	1ryy
.	.	.	8A/	.	8A	.	.	.	.	.	.	.	.	.	.	.	.	.	.	.	.
.	.	.	8A/	.	8A	.	.	.	.	.	.	.	.	.	.	.	.	.	.	.	.
.	.	.	8A/	.	8A	.	.	.	.	.	.	.	.	.	.	.	.	.	.	.	.
.	.	.	8A/	.	8A	.	.	.	4.B\	.	.	.	.	.	4.ddT\	.	.	.	.	.	.
.	.	.	8A/	.	8A	.	.	.	.	.	.	.	.	.	.	.	.	.	.	.	.
.	.	.	8A/	.	8A	.	.	.	.	.	.	.	.	.	.	.	.	.	.	.	.
.	.	.	8A/J	.	8AJ	.	.	.	16A\LL	.	.	.	.	.	16cc#\LL	.	.	.	.	.	.
.	.	.	.	.	.	.	.	.	16B\JJ	.	.	.	.	.	16dd\JJ	.	.	.	.	.	.
=44	=44	=44	=44	=44	=44	=44	=44	=44	=44	=44	=44	=44	=44	=44	=44	=44	=44	=44	=44	=44	=44
.	.	.	8A/Lyy	.	8AL	.	.	.	4c#\	-son	.	.	.	.	4ee\	-son	.	1r	1r	1ryy	1ryy
.	.	.	8A/	.	8A	.	.	.	.	.	.	.	.	.	.	.	.	.	.	.	.
.	.	.	8A/	.	8A	.	.	.	8r	.	.	.	.	.	8r	.	.	.	.	.	.
.	.	.	8A/	.	8A	.	.	.	8d\	e-	.	.	.	.	8ff#\	e-	.	.	.	.	.
.	.	.	8A/	.	8A	.	.	.	4e\	-lei-	.	.	.	.	4gg\	-lei-	.	.	.	.	.
.	.	.	8A/	.	8A	.	.	.	.	.	.	.	.	.	.	.	.	.	.	.	.
.	.	.	8A/	.	8A	.	.	.	8e\	.	.	.	.	.	8gg\	.	.	.	.	.	.
.	.	.	8A/J	.	8AJ	.	.	.	8e\	.	.	.	.	.	8gg\	.	.	.	.	.	.
!	!	!	!	!	!LO:LB:g=original	!	!	!	!LO:LB:g=original	!	!	!	!	!	!	!	!	!	!	!	!
=45	=45	=45	=45	=45	=45	=45	=45	=45	=45	=45	=45	=45	=45	=45	=45	=45	=45	=45	=45	=45	=45
!	!	!	!	!	!	!	!	!	!LO:N:vis=2	!	!	!	!	!	!	!	!	!LO:N:vis=2	!	!	!
0r	.	.	8A/Lyy	.	8AL	.	0r	.	1e	.	.	0r	.	.	1gg	.	.	1d	2ee\	1ryy	1ryy
.	.	.	8A/	.	8A	.	.	.	.	.	.	.	.	.	.	.	.	.	.	.	.
.	.	.	8A/	.	8A	.	.	.	.	.	.	.	.	.	.	.	.	.	.	.	.
.	.	.	8A/	.	8A	.	.	.	.	.	.	.	.	.	.	.	.	.	.	.	.
.	.	.	8A/	.	8A	.	.	.	.	.	.	.	.	.	.	.	.	.	2ee\	.	.
.	.	.	8A/	.	8A	.	.	.	.	.	.	.	.	.	.	.	.	.	.	.	.
.	.	.	8A/	.	8A	.	.	.	.	.	.	.	.	.	.	.	.	.	.	.	.
.	.	.	8A/J	.	8AJ	.	.	.	.	.	.	.	.	.	.	.	.	.	.	.	.
=46	=46	=46	=46	=46	=46	=46	=46	=46	=46	=46	=46	=46	=46	=46	=46	=46	=46	=46	=46	=46	=46
.	.	.	8A/Lyy	.	8AL	.	.	.	8e\L	.	.	.	.	.	(8gg\L	.	.	2a/	2ee\	1ryy	1ryy
.	.	.	8A/	.	8A	.	.	.	(8d\	.	.	.	.	.	8ff#\)	.	.	.	.	.	.
.	.	.	8A/	.	8A	.	.	.	8c#\)	.	.	.	.	.	(8ee\	.	.	.	.	.	.
.	.	.	8A/	.	8A	.	.	.	8B\J	.	.	.	.	.	8dd\J)	.	.	.	.	.	.
.	.	.	8A/	.	8A	.	.	.	(8A\L	.	.	.	.	.	(8cc#\L	.	.	2dd\	2ff#\	.	.
.	.	.	8A/	.	8A	.	.	.	8G\	.	.	.	.	.	8b\)	.	.	.	.	.	.
.	.	.	8A/	.	8A	.	.	.	8F#\)	.	.	.	.	.	(8a\	.	.	.	.	.	.
.	.	.	8A/J	.	8AJ	.	.	.	8E\J	.	.	.	.	.	8g\J)	.	.	.	.	.	.
*	*	*	*Xtremolo	*	*	*	*	*	*	*	*	*	*	*	*	*	*	*	*	*	*
=47	=47	=47	=47	=47	=47	=47	=47	=47	=47	=47	=47	=47	=47	=47	=47	=47	=47	=47	=47	=47	=47
*	*	*	*tremolo	*	*	*	*	*ij	*	*	*	*	*	*	*	*	*	*	*	*	*
4.D\	.	.	16d/LL	f	8dd/L	f	4.D\	Ky-	4D/	-son	.	4.a\	Ky-	.	4f#\	.	.	4dd\	4ff#\	1ryy	1ryy
.	.	.	16d/	.	.	.	.	.	.	.	.	.	.	.	.	.	.	.	.	.	.
!	!	!	!	!	!LO:TX:t=P:problem:mixed beam	!	!	!	!	!	!	!	!	!	!	!	!	!	!	!	!
.	.	.	16d/	.	16d/L	.	.	.	.	.	.	.	.	.	.	.	.	.	.	.	.
.	.	.	16d/	.	16e/JJ	.	.	.	.	.	.	.	.	.	.	.	.	.	.	.	.
.	.	.	16d/	.	8f#/L	.	.	.	2d\	e-	.	.	.	.	8.dd\	.	.	4f#/	4ee\	.	.
.	.	.	16d/	.	.	.	.	.	.	.	.	.	.	.	.	.	.	.	.	.	.
8F#\	6	.	16d/	.	8d/J	.	8D\	-ri-	.	.	.	8a\	-ri-	.	.	.	.	.	.	.	.
.	.	.	16d/JJ	.	.	.	.	.	.	.	.	.	.	.	16dd\	-son	.	.	.	.	.
!LO:LB:g=original	!	!	!	!	!	!	!	!	!	!	!	!	!	!	!	!	!	!	!	!	!
8G/L	6 5	.	16dd\LL	.	4e/	.	4G\	-e	.	.	.	4b\	-e	.	4ee\	.	.	4f#/	4dd\	.	.
.	.	.	16dd\	.	.	.	.	.	.	.	.	.	.	.	.	.	.	.	.	.	.
!LO:TX:t=P:problem:mixed beam	!	!	!	!	!	!	!	!	!	!	!	!	!	!	!	!	!	!	!	!	!
16GG/L	.	.	16dd\	.	.	.	.	.	.	.	.	.	.	.	.	.	.	.	.	.	.
16AA/JJ	.	.	16dd\	.	.	.	.	.	.	.	.	.	.	.	.	.	.	.	.	.	.
8BB/L	.	.	16dd\	.	[4ee\	.	4E\	e-	4d\	-lei-	.	4b\	e-	.	4ee\	e-	.	4r	4r	.	.
.	.	.	16dd\	.	.	.	.	.	.	.	.	.	.	.	.	.	.	.	.	.	.
8GG/J	.	.	16dd\	.	.	.	.	.	.	.	.	.	.	.	.	.	.	.	.	.	.
.	.	.	16dd\JJ	.	.	.	.	.	.	.	.	.	.	.	.	.	.	.	.	.	.
!	!	!	!	!	!	!	!LO:LB:g=original	!	!	!	!	!	!	!	!LO:LB:g=original	!	!	!	!	!	!
=48	=48	=48	=48	=48	=48	=48	=48	=48	=48	=48	=48	=48	=48	=48	=48	=48	=48	=48	=48	=48	=48
4AA/	.	.	16cc#\LL	.	8ee\L]	.	2A\	-lei-	4c#\	-son	.	2a\	-lei-	.	2ee\	-lei-	.	00r	00r	1ryy	1ryy
.	.	.	16cc#\	.	.	.	.	.	.	.	.	.	.	.	.	.	.	.	.	.	.
.	.	.	16cc#\	.	16dd\L	.	.	.	.	.	.	.	.	.	.	.	.	.	.	.	.
.	.	.	16cc#\JJ	.	16cc#\JJ	.	.	.	.	.	.	.	.	.	.	.	.	.	.	.	.
4c#\	6 5	.	16e/LL	.	8aa\L	.	.	.	8r	.	.	.	.	.	.	.	.	.	.	.	.
.	.	.	16e/	.	.	.	.	.	.	.	.	.	.	.	.	.	.	.	.	.	.
.	.	.	16e/	.	8gg\J	.	.	.	8d\	e-	.	.	.	.	.	.	.	.	.	.	.
.	.	.	16e/JJ	.	.	.	.	.	.	.	.	.	.	.	.	.	.	.	.	.	.
8d\L	.	.	16a\LL	.	4ff#\	.	4D\	-son	2d\	-lei-	.	4a\	-son	.	4ff#\	.	.	.	.	.	.
.	.	.	16a\	.	.	.	.	.	.	.	.	.	.	.	.	.	.	.	.	.	.
!LO:TX:t=P:problem:mixed beam	!	!	!	!	!	!	!	!	!	!	!	!	!	!	!	!	!	!	!	!	!
16D\L	.	.	16a\	.	.	.	.	.	.	.	.	.	.	.	.	.	.	.	.	.	.
16E\JJ	.	.	16a\	.	.	.	.	.	.	.	.	.	.	.	.	.	.	.	.	.	.
8F#\L	.	.	16a\	.	4ddd\	.	4r	.	.	.	.	4r	.	.	8r	.	.	.	.	.	.
.	.	.	16a\	.	.	.	.	.	.	.	.	.	.	.	.	.	.	.	.	.	.
8D\J	.	.	16a\	.	.	.	.	.	.	.	.	.	.	.	8ff#\	e-	.	.	.	.	.
.	.	.	16a\JJ	.	.	.	.	.	.	.	.	.	.	.	.	.	.	.	.	.	.
*	*	*	*	*	*	*	*	*Xij	*	*	*	*	*	*	*	*	*	*	*	*	*
=49	=49	=49	=49	=49	=49	=49	=49	=49	=49	=49	=49	=49	=49	=49	=49	=49	=49	=49	=49	=49	=49
4BB/	.	.	16a/LL	.	8ddd\L	.	4r	.	4d\	.	.	4b\	Ky-	.	4ff#\	.	.	.	.	1ryy	1ryy
.	.	.	16a/	.	.	.	.	.	.	.	.	.	.	.	.	.	.	.	.	.	.
.	.	.	16a/	.	16ccc#\L	.	.	.	.	.	.	.	.	.	.	.	.	.	.	.	.
.	.	.	16a/JJ	.	16bb\JJ	.	.	.	.	.	.	.	.	.	.	.	.	.	.	.	.
4C#/	6\	.	16g/LL	.	8aa#X\L	.	4c#\	e-	8r	.	.	4a#X\	-ri-	.	4ee\	.	.	.	.	.	.
.	.	.	16g/	.	.	.	.	.	.	.	.	.	.	.	.	.	.	.	.	.	.
.	.	.	16g/	.	8ccc#\J	.	.	.	8c#\	.	.	.	.	.	.	.	.	.	.	.	.
.	.	.	16g/JJ	.	.	.	.	.	.	.	.	.	.	.	.	.	.	.	.	.	.
8D\L	6	.	16f#/LL	.	4.bb\	.	4B\	-lei-	4d\	.	.	4b\	-e	.	4dd\	-son	.	.	.	.	.
.	.	.	16f#/	.	.	.	.	.	.	.	.	.	.	.	.	.	.	.	.	.	.
16D\L	.	.	16f#/	.	.	.	.	.	.	.	.	.	.	.	.	.	.	.	.	.	.
16E\JJ	.	.	16f#/JJ	.	.	.	.	.	.	.	.	.	.	.	.	.	.	.	.	.	.
8F#\L	.	.	16b/LL	.	.	.	4D\	-son	4f#\	.	.	4b\	e-	.	4r	.	.	.	.	.	.
.	.	.	16b/	.	.	.	.	.	.	.	.	.	.	.	.	.	.	.	.	.	.
8D\J	.	.	16b/	.	8ff#\	.	.	.	.	.	.	.	.	.	.	.	.	.	.	.	.
.	.	.	16b/JJ	.	.	.	.	.	.	.	.	.	.	.	.	.	.	.	.	.	.
=50	=50	=50	=50	=50	=50	=50	=50	=50	=50	=50	=50	=50	=50	=50	=50	=50	=50	=50	=50	=50	=50
*	*	*	*	*	*	*	*	*ij	*	*	*	*	*	*	*	*	*	*	*	*	*
4.E\	.	.	16b\LL	.	8gg\L	.	4.E\	e-	2.e\	.	.	2b\	-lei-	.	4r	.	.	.	.	1ryy	1ryy
.	.	.	16b\	.	.	.	.	.	.	.	.	.	.	.	.	.	.	.	.	.	.
!	!	!	!	!	!LO:TX:t=P:problem:mixed beam	!	!	!	!	!	!	!	!	!	!	!	!	!	!	!	!
.	.	.	16b\	.	16g\L	.	.	.	.	.	.	.	.	.	.	.	.	.	.	.	.
.	.	.	16b\	.	16a\JJ	.	.	.	.	.	.	.	.	.	.	.	.	.	.	.	.
.	.	.	16b\	.	8b/L	.	.	.	.	.	.	.	.	.	2gg\	Ky-	.	.	.	.	.
.	.	.	16b\	.	.	.	.	.	.	.	.	.	.	.	.	.	.	.	.	.	.
8G\	6	.	16b\	.	8g/J	.	8G\	-lei-	.	.	.	.	.	.	.	.	.	.	.	.	.
.	.	.	16b\JJ	.	.	.	.	.	.	.	.	.	.	.	.	.	.	.	.	.	.
8A\L	4	.	16cc#\LL	.	8e/	.	2A\	-son	.	.	.	2an\	.	.	.	.	.	.	.	.	.
.	.	.	16cc#\	.	.	.	.	.	.	.	.	.	.	.	.	.	.	.	.	.	.
16A\L	.	.	16cc#\	.	4gg\	.	.	.	.	.	.	.	.	.	.	.	.	.	.	.	.
16B\JJ	.	.	16cc#\	.	.	.	.	.	.	.	.	.	.	.	.	.	.	.	.	.	.
8c#\L	.	.	16cc#\	.	.	.	.	.	4e\	.	.	.	.	.	8gg\L	-ri-	.	.	.	.	.
.	.	.	16cc#\	.	.	.	.	.	.	.	.	.	.	.	.	.	.	.	.	.	.
8A\J	6	.	16cc#\	.	8ff#\	.	.	.	.	.	.	.	.	.	8ff#\J	.	.	.	.	.	.
.	.	.	16cc#\JJ	.	.	.	.	.	.	.	.	.	.	.	.	.	.	.	.	.	.
*	*	*	*	*	*	*	*	*Xij	*	*	*	*	*	*	*	*	*	*	*	*	*
=51	=51	=51	=51	=51	=51	=51	=51	=51	=51	=51	=51	=51	=51	=51	=51	=51	=51	=51	=51	=51	=51
4d\	.	.	16a\LL	.	8ff#\L	.	2d\	e-	1d	.	.	2a\	.	.	2.ff#\	-e	.	.	.	1ryy	1ryy
.	.	.	16a\	.	.	.	.	.	.	.	.	.	.	.	.	.	.	.	.	.	.
!	!	!	!	!	!LO:TX:t=P:problem:mixed beam	!	!	!	!	!	!	!	!	!	!	!	!	!	!	!	!
.	.	.	16a\	.	16f#\L	.	.	.	.	.	.	.	.	.	.	.	.	.	.	.	.
.	.	.	16a\	.	16g\JJ	.	.	.	.	.	.	.	.	.	.	.	.	.	.	.	.
!	!	!	!	!	!LO:LB:g=original	!	!	!	!	!	!	!	!	!	!	!	!	!	!	!	!
4D/	.	.	16a\	.	8a/L	.	.	.	.	.	.	.	.	.	.	.	.	.	.	.	.
.	.	.	16a\	.	.	.	.	.	.	.	.	.	.	.	.	.	.	.	.	.	.
.	.	.	16a\	.	8f#/J	.	.	.	.	.	.	.	.	.	.	.	.	.	.	.	.
.	.	.	16a\JJ	.	.	.	.	.	.	.	.	.	.	.	.	.	.	.	.	.	.
8G\L	4	.	16b\LL	.	8d/	.	2G\	-lei-	.	.	.	2g\	.	.	.	.	.	.	.	.	.
.	.	.	16b\	.	.	.	.	.	.	.	.	.	.	.	.	.	.	.	.	.	.
16G\L	.	.	16b\	.	4ff#\	.	.	.	.	.	.	.	.	.	.	.	.	.	.	.	.
16A\JJ	.	.	16b\	.	.	.	.	.	.	.	.	.	.	.	.	.	.	.	.	.	.
8B\L	.	.	16b\	.	.	.	.	.	.	.	.	.	.	.	(8ff#\L	e-	.	.	.	.	.
.	.	.	16b\	.	.	.	.	.	.	.	.	.	.	.	.	.	.	.	.	.	.
8G\J	6	.	16b\	.	8ee\	.	.	.	.	.	.	.	.	.	8ee\J)	.	.	.	.	.	.
.	.	.	16b\JJ	.	.	.	.	.	.	.	.	.	.	.	.	.	.	.	.	.	.
!LO:LB:g=original	!	!	!LO:LB:g=original	!	!	!	!	!	!	!	!	!LO:LB:g=original	!	!	!	!	!	!	!	!	!
=52	=52	=52	=52	=52	=52	=52	=52	=52	=52	=52	=52	=52	=52	=52	=52	=52	=52	=52	=52	=52	=52
!	!	!	!	!	!	!	!	!	!	!	!	!	!	!	!	!	!	!LO:SIC:o:s=:v:źle zapisana pauza	!LO:SIC:o:s=:v:źle zapisana pauza	!	!
!	!	!	!	!	!	!	!	!	!	!	!	!	!	!	!	!	!	!LO:N:vis=00	!LO:N:vis=00	!	!
4c#\	.	.	16g/LL	.	8ee/L	.	2c#\	.	1c#	.	.	2g\	.	.	2.ee\	-lei-	.	0r	0r	1ryy	1ryy
.	.	.	16g/	.	.	.	.	.	.	.	.	.	.	.	.	.	.	.	.	.	.
!	!	!	!	!	!LO:TX:t=P:problem:mixed beam	!	!	!	!	!	!	!	!	!	!	!	!	!	!	!	!
.	.	.	16g/	.	16e/L	.	.	.	.	.	.	.	.	.	.	.	.	.	.	.	.
.	.	.	16g/	.	16f#/JJ	.	.	.	.	.	.	.	.	.	.	.	.	.	.	.	.
4C#/	.	.	16g/	.	8g/L	.	.	.	.	.	.	.	.	.	.	.	.	.	.	.	.
.	.	.	16g/	.	.	.	.	.	.	.	.	.	.	.	.	.	.	.	.	.	.
.	.	.	16g/	.	8e/J	.	.	.	.	.	.	.	.	.	.	.	.	.	.	.	.
.	.	.	16g/JJ	.	.	.	.	.	.	.	.	.	.	.	.	.	.	.	.	.	.
8F#\L	7 #	.	16a/LL	.	8c#/	.	2F#\	.	.	.	.	2f#\	.	.	.	.	.	.	.	.	.
.	.	.	16a/	.	.	.	.	.	.	.	.	.	.	.	.	.	.	.	.	.	.
16F#\L	.	.	16a/	.	4ee\	.	.	.	.	.	.	.	.	.	.	.	.	.	.	.	.
16G#X\JJ	.	.	16a/	.	.	.	.	.	.	.	.	.	.	.	.	.	.	.	.	.	.
8A#X\L	.	.	16a/	.	.	.	.	.	.	.	.	.	.	.	(8ee\L	.	.	.	.	.	.
.	.	.	16a/	.	.	.	.	.	.	.	.	.	.	.	.	.	.	.	.	.	.
8F#\J	6	.	16a/	.	8dd\	.	.	.	.	.	.	.	.	.	8dd\J)	.	.	.	.	.	.
.	.	.	16a/JJ	.	.	.	.	.	.	.	.	.	.	.	.	.	.	.	.	.	.
=53	=53	=53	=53	=53	=53	=53	=53	=53	=53	=53	=53	=53	=53	=53	=53	=53	=53	=53	=53	=53	=53
4B\	.	.	16f#/LL	.	8dd/L	.	2B\	.	1B	.	.	2f#\	.	.	2dd\	-son	.	.	.	1ryy	1ryy
.	.	.	16f#/	.	.	.	.	.	.	.	.	.	.	.	.	.	.	.	.	.	.
!	!	!	!	!	!LO:TX:t=P:problem:mixed beam	!	!	!	!	!	!	!	!	!	!	!	!	!	!	!	!
.	.	.	16f#/	.	16d/L	.	.	.	.	.	.	.	.	.	.	.	.	.	.	.	.
.	.	.	16f#/	.	16e/JJ	.	.	.	.	.	.	.	.	.	.	.	.	.	.	.	.
4BB/	.	.	16f#/	.	8f#/L	.	.	.	.	.	.	.	.	.	.	.	.	.	.	.	.
.	.	.	16f#/	.	.	.	.	.	.	.	.	.	.	.	.	.	.	.	.	.	.
.	.	.	16f#/	.	8d/J	.	.	.	.	.	.	.	.	.	.	.	.	.	.	.	.
.	.	.	16f#/JJ	.	.	.	.	.	.	.	.	.	.	.	.	.	.	.	.	.	.
8E\L	6 5	.	16g/LL	.	4c#/	.	2E\	.	.	.	.	2e\	.	.	4cc#\	.	.	.	.	.	.
.	.	.	16g/	.	.	.	.	.	.	.	.	.	.	.	.	.	.	.	.	.	.
16E\L	.	.	16g/	.	.	.	.	.	.	.	.	.	.	.	.	.	.	.	.	.	.
16F#\JJ	.	.	16g/	.	.	.	.	.	.	.	.	.	.	.	.	.	.	.	.	.	.
8G\L	.	.	16g/	.	4ee\	.	.	.	.	.	.	.	.	.	4ee\	e-	.	.	.	.	.
.	.	.	16g/	.	.	.	.	.	.	.	.	.	.	.	.	.	.	.	.	.	.
8E\J	.	.	16g/	.	.	.	.	.	.	.	.	.	.	.	.	.	.	.	.	.	.
.	.	.	16g/JJ	.	.	.	.	.	.	.	.	.	.	.	.	.	.	.	.	.	.
=54	=54	=54	=54	=54	=54	=54	=54	=54	=54	=54	=54	=54	=54	=54	=54	=54	=54	=54	=54	=54	=54
4F#\	7 #	.	16a#X/LL	.	(8ee\L	.	2F#\	.	2A#X\	-son	.	2c#\	.	.	4ee\	.	.	1r	1r	1ryy	1ryy
.	.	.	16a#/	.	.	.	.	.	.	.	.	.	.	.	.	.	.	.	.	.	.
.	.	.	16a#/	.	16ff#\L)	.	.	.	.	.	.	.	.	.	.	.	.	.	.	.	.
.	.	.	16a#/	.	16ee\JJ	.	.	.	.	.	.	.	.	.	.	.	.	.	.	.	.
4FF#/	.	.	16a#/	.	8dd\L	.	.	.	.	.	.	.	.	.	8dd\L	.	.	.	.	.	.
.	.	.	16a#/	.	.	.	.	.	.	.	.	.	.	.	.	.	.	.	.	.	.
.	.	.	16a#/	.	8cc#\J	.	.	.	.	.	.	.	.	.	8cc#\J	.	.	.	.	.	.
.	.	.	16a#/JJ	.	.	.	.	.	.	.	.	.	.	.	.	.	.	.	.	.	.
!	!	!	!	!	!	!	!LO:LB:g=original	!	!	!	!	!	!	!	!	!	!	!	!	!	!
8BB\L	.	.	16d/LL 16b	.	4dd\	.	4BB/	-son	4r	.	.	4B\	.	.	4dd\	.	.	.	.	.	.
.	.	.	16d/ 16b	.	.	.	.	.	.	.	.	.	.	.	.	.	.	.	.	.	.
!LO:TX:t=P:problem:mixed beam	!	!	!	!	!	!	!	!	!	!	!	!	!	!	!	!	!	!	!	!	!
16B\L	.	.	16d/ 16b	.	.	.	.	.	.	.	.	.	.	.	.	.	.	.	.	.	.
16c#\JJ	.	.	16d/ 16b	.	.	.	.	.	.	.	.	.	.	.	.	.	.	.	.	.	.
8d\L	.	.	16d/ 16b	.	[4ff#\	.	8r	.	4d\	e-	.	4f#\	.	.	4ff#\	.	.	.	.	.	.
.	.	.	16d/ 16b	.	.	.	.	.	.	.	.	.	.	.	.	.	.	.	.	.	.
8B\J	.	.	16d/ 16b	.	.	.	8B\	e-	.	.	.	.	.	.	.	.	.	.	.	.	.
.	.	.	16d/JJ 16b	.	.	.	.	.	.	.	.	.	.	.	.	.	.	.	.	.	.
!	!	!	!	!	!	!	!	!	!	!	!	!	!	!	!LO:LB:g=original	!	!	!	!	!	!
=55	=55	=55	=55	=55	=55	=55	=55	=55	=55	=55	=55	=55	=55	=55	=55	=55	=55	=55	=55	=55	=55
4G\	.	.	16b\LL	.	8ff#\L]	.	2G\	-lei-	4d\	-lei-	.	1g	.	.	4ff#\	.	.	2f#/	2ff#\	1ryy	1ryy
.	.	.	16b\	.	.	.	.	.	.	.	.	.	.	.	.	.	.	.	.	.	.
.	.	.	16b\	.	16gg\L	.	.	.	.	.	.	.	.	.	.	.	.	.	.	.	.
.	.	.	16b\	.	16ff#\JJ	.	.	.	.	.	.	.	.	.	.	.	.	.	.	.	.
4GG/	.	.	16b\	.	8ee\L	.	.	.	8c#\L	.	.	.	.	.	8ee\L	.	.	.	.	.	.
.	.	.	16b\	.	.	.	.	.	.	.	.	.	.	.	.	.	.	.	.	.	.
.	.	.	16b\	.	8dd\J	.	.	.	8B\J	.	.	.	.	.	8dd\J	.	.	.	.	.	.
.	.	.	16b\JJ	.	.	.	.	.	.	.	.	.	.	.	.	.	.	.	.	.	.
8C#X\L	.	.	16g/LL	.	4ee\	.	4C#/	-son	4c#\	-son	.	.	.	.	4ee\	.	.	2r	2r	.	.
.	.	.	16g/	.	.	.	.	.	.	.	.	.	.	.	.	.	.	.	.	.	.
!LO:TX:t=P:problem:mixed beam	!	!	!	!	!	!	!	!	!	!	!	!	!	!	!	!	!	!	!	!	!
16c#\L	.	.	16g/	.	.	.	.	.	.	.	.	.	.	.	.	.	.	.	.	.	.
16d\JJ	.	.	16g/JJ	.	.	.	.	.	.	.	.	.	.	.	.	.	.	.	.	.	.
8e\L	.	.	16e/LL	.	[4gg\	.	8r	.	8r	.	.	.	.	.	4gg\	.	.	.	.	.	.
.	.	.	16e/	.	.	.	.	.	.	.	.	.	.	.	.	.	.	.	.	.	.
*	*	*	*	*	*	*	*	*ij	*	*ij	*	*	*	*	*	*	*	*	*	*	*
8c#\J	.	.	16e/	.	.	.	8c#\	e-	8e\	e-	.	.	.	.	.	.	.	.	.	.	.
.	.	.	16e/JJ	.	.	.	.	.	.	.	.	.	.	.	.	.	.	.	.	.	.
=56	=56	=56	=56	=56	=56	=56	=56	=56	=56	=56	=56	=56	=56	=56	=56	=56	=56	=56	=56	=56	=56
!	!	!	!	!	!	!	!	!	!	!	!	!	!	!	!	!	!	!	!LO:TX:a:t=11	!	!
4.A#X\	.	.	16e/LL	.	8gg\L]	.	2A#X\	-lei-	4e\	-lei-	.	4a#X\	.	.	4gg\	.	.	00r	00r	1ryy	1ryy
.	.	.	16e/	.	.	.	.	.	.	.	.	.	.	.	.	.	.	.	.	.	.
.	.	.	16e/	.	16ff#\L	.	.	.	.	.	.	.	.	.	.	.	.	.	.	.	.
.	.	.	16e/	.	16ee\JJ	.	.	.	.	.	.	.	.	.	.	.	.	.	.	.	.
.	.	.	16e/	.	8ff#\L	.	.	.	4c#\	.	.	4f#\	.	.	8ff#\L	.	.	.	.	.	.
.	.	.	16e/	.	.	.	.	.	.	.	.	.	.	.	.	.	.	.	.	.	.
8F#\	.	.	16e/	.	8aa#X\J	.	.	.	.	.	.	.	.	.	8ee\J	.	.	.	.	.	.
.	.	.	16e/JJ	.	.	.	.	.	.	.	.	.	.	.	.	.	.	.	.	.	.
!LO:LB:g=original	!	!	!	!	!LO:LB:g=original	!	!	!	!LO:LB:g=original	!	!	!	!	!	!	!	!	!	!	!	!
8B\L	.	.	16d/LL	.	2bb\	.	4B\	-son	4B\	.	.	4f#\	-son	.	4dd\	.	.	.	.	.	.
.	.	.	16d/	.	.	.	.	.	.	.	.	.	.	.	.	.	.	.	.	.	.
!LO:TX:t=P:problem:mixed beam	!	!	!	!	!	!	!	!	!	!	!	!	!	!	!	!	!	!	!	!	!
16BB\L	.	.	16d/	.	.	.	.	.	.	.	.	.	.	.	.	.	.	.	.	.	.
16C#\JJ	.	.	16d/	.	.	.	.	.	.	.	.	.	.	.	.	.	.	.	.	.	.
8D/L	.	.	16d/	.	.	.	8r	.	4B\	.	.	4r	.	.	4dd\	.	.	.	.	.	.
.	.	.	16d/	.	.	.	.	.	.	.	.	.	.	.	.	.	.	.	.	.	.
*	*	*	*	*	*	*	*	*Xij	*	*	*	*	*	*	*	*	*	*	*	*	*
8BB/J	.	.	16d/	.	.	.	8BB/	e-	.	.	.	.	.	.	.	.	.	.	.	.	.
.	.	.	16d/JJ	.	.	.	.	.	.	.	.	.	.	.	.	.	.	.	.	.	.
=57	=57	=57	=57	=57	=57	=57	=57	=57	=57	=57	=57	=57	=57	=57	=57	=57	=57	=57	=57	=57	=57
!	!	!	!	!	!	!	!	!	!	!	!	!	!	!	!LO:SIC:o=:v:pod nutą skreślona sylaba "son"	!	!	!	!	!	!
8B\L	.	.	16e/LL	.	8bb\	.	2C#/	-lei-	1B	.	.	4r	.	.	1dd	.	.	.	.	1ryy	1ryy
.	.	.	16e/	.	.	.	.	.	.	.	.	.	.	.	.	.	.	.	.	.	.
!LO:TX:t=P:problem:mixed beam	!	!	!	!	!	!	!	!	!	!	!	!	!	!	!	!	!	!	!	!	!
16C#'\L	.	.	16e/	.	4bb\	.	.	.	.	.	.	.	.	.	.	.	.	.	.	.	.
16D\JJ	.	.	16e/	.	.	.	.	.	.	.	.	.	.	.	.	.	.	.	.	.	.
8E/L	.	.	16e/	.	.	.	.	.	.	.	.	4e\	e-	.	.	.	.	.	.	.	.
.	.	.	16e/	.	.	.	.	.	.	.	.	.	.	.	.	.	.	.	.	.	.
8C#/J	.	.	16e/	.	4bb\	.	.	.	.	.	.	.	.	.	.	.	.	.	.	.	.
.	.	.	16e/JJ	.	.	.	.	.	.	.	.	.	.	.	.	.	.	.	.	.	.
8B\L	.	.	16f#/LL	.	.	.	2D/	.	.	.	.	2f#\	-lei-	.	.	.	.	.	.	.	.
.	.	.	16f#/	.	.	.	.	.	.	.	.	.	.	.	.	.	.	.	.	.	.
!LO:TX:t=P:problem:mixed beam	!	!	!	!	!	!	!	!	!	!	!	!	!	!	!	!	!	!	!	!	!
16D'\L	.	.	16f#/	.	4bb\	.	.	.	.	.	.	.	.	.	.	.	.	.	.	.	.
16E\JJ	.	.	16f#/	.	.	.	.	.	.	.	.	.	.	.	.	.	.	.	.	.	.
8F#\L	.	.	16f#/	.	.	.	.	.	.	.	.	.	.	.	.	.	.	.	.	.	.
.	.	.	16f#/	.	.	.	.	.	.	.	.	.	.	.	.	.	.	.	.	.	.
8D\J	.	.	16f#/	.	8bb\	.	.	.	.	.	.	.	.	.	.	.	.	.	.	.	.
.	.	.	16f#/JJ	.	.	.	.	.	.	.	.	.	.	.	.	.	.	.	.	.	.
!	!	!	!	!	!	!	!	!	!	!	!	!LO:LB:g=original	!	!	!	!	!	!	!	!	!
=58	=58	=58	=58	=58	=58	=58	=58	=58	=58	=58	=58	=58	=58	=58	=58	=58	=58	=58	=58	=58	=58
8B\L	.	.	16g/LL	.	16bbLL	.	2E\	.	1B	.	.	2g\	.	.	1dd	-lei-	.	.	.	1ryy	1ryy
.	.	.	16g/	.	16bb	.	.	.	.	.	.	.	.	.	.	.	.	.	.	.	.
16E'\L	.	.	16g/	.	16bb	.	.	.	.	.	.	.	.	.	.	.	.	.	.	.	.
16F#\JJ	.	.	16g/	.	16bb	.	.	.	.	.	.	.	.	.	.	.	.	.	.	.	.
8G\L	.	.	16g/	.	16bb	.	.	.	.	.	.	.	.	.	.	.	.	.	.	.	.
.	.	.	16g/	.	16bb	.	.	.	.	.	.	.	.	.	.	.	.	.	.	.	.
8E\J	.	.	16g/	.	16bb	.	.	.	.	.	.	.	.	.	.	.	.	.	.	.	.
.	.	.	16g/JJ	.	16bb	.	.	.	.	.	.	.	.	.	.	.	.	.	.	.	.
8B\L	.	.	16g#X/LL	.	16bb	.	2E#X\	.	.	.	.	2g#X\	.	.	.	.	.	.	.	.	.
.	.	.	16g#/	.	16bb	.	.	.	.	.	.	.	.	.	.	.	.	.	.	.	.
16E#X'\L	.	.	16g#/	.	16bb	.	.	.	.	.	.	.	.	.	.	.	.	.	.	.	.
16F#\JJ	.	.	16g#/	.	16bb	.	.	.	.	.	.	.	.	.	.	.	.	.	.	.	.
8G#X\L	.	.	16g#/	.	16bb	.	.	.	.	.	.	.	.	.	.	.	.	.	.	.	.
.	.	.	16g#/	.	16bb	.	.	.	.	.	.	.	.	.	.	.	.	.	.	.	.
8E#\J	.	.	16g#/	.	16bb	.	.	.	.	.	.	.	.	.	.	.	.	.	.	.	.
.	.	.	16g#/JJ	.	16bbJJ	.	.	.	.	.	.	.	.	.	.	.	.	.	.	.	.
*	*	*	*Xtremolo	*	*	*	*	*	*	*	*	*	*	*	*	*	*	*	*	*	*
=59	=59	=59	=59	=59	=59	=59	=59	=59	=59	=59	=59	=59	=59	=59	=59	=59	=59	=59	=59	=59	=59
*tremolo	*	*	*	*	*	*	*	*	*	*	*	*	*	*	*	*	*	*	*	*	*
8F#\L	6 4	.	2f#/	.	2bb\	p	2F#\	-son	2B\	-son	.	2f#\	-son	.	2dd\	-son	.	.	.	1ryy	1ryy
8F#\	.	.	.	.	.	.	.	.	.	.	.	.	.	.	.	.	.	.	.	.	.
8F#\	.	.	.	.	.	.	.	.	.	.	.	.	.	.	.	.	.	.	.	.	.
8F#\J	.	.	.	.	.	.	.	.	.	.	.	.	.	.	.	.	.	.	.	.	.
*Xtremolo	*	*	*	*	*	*	*	*	*	*Xij	*	*	*	*	*	*	*	*	*	*	*
2r	.	.	2r	.	4.bb\	.	2r	.	2r	.	.	2r	.	.	2r	.	.	.	.	.	.
.	.	.	.	.	16ccc#\LL	.	.	.	.	.	.	.	.	.	.	.	.	.	.	.	.
.	.	.	.	.	16bb\JJ	.	.	.	.	.	.	.	.	.	.	.	.	.	.	.	.
!	!	!	!LO:LB:g=original	!	!	!	!	!	!	!	!	!	!	!	!	!	!	!	!	!	!
=60	=60	=60	=60	=60	=60	=60	=60	=60	=60	=60	=60	=60	=60	=60	=60	=60	=60	=60	=60	=60	=60
00r	.	.	4.f#/	.	(8aa#X\L	.	00r	.	00r	.	.	0r	.	.	0r	.	.	00r	00r	1ryy	1ryy
.	.	.	.	.	8ff#\	.	.	.	.	.	.	.	.	.	.	.	.	.	.	.	.
.	.	.	.	.	8gg\)	.	.	.	.	.	.	.	.	.	.	.	.	.	.	.	.
.	.	.	8e/	.	8aa#\J	.	.	.	.	.	.	.	.	.	.	.	.	.	.	.	.
.	.	.	4.d/	.	8bb\L	.	.	.	.	.	.	.	.	.	.	.	.	.	.	.	.
!	!	!	!	!	!LO:TX:t=P:problem:mixed beam	!	!	!	!	!	!	!	!	!	!	!	!	!	!	!	!
.	.	.	.	.	8b\	.	.	.	.	.	.	.	.	.	.	.	.	.	.	.	.
.	.	.	.	.	(8bb\	.	.	.	.	.	.	.	.	.	.	.	.	.	.	.	.
.	.	.	8d#X/	.	8aan\J)	.	.	.	.	.	.	.	.	.	.	.	.	.	.	.	.
=61	=61	=61	=61	=61	=61	=61	=61	=61	=61	=61	=61	=61	=61	=61	=61	=61	=61	=61	=61	=61	=61
.	.	.	4.e/	.	8gg#X\L	.	.	.	.	.	.	.	.	.	.	.	.	.	.	1ryy	1ryy
.	.	.	.	.	(8ee\	.	.	.	.	.	.	.	.	.	.	.	.	.	.	.	.
.	.	.	.	.	8ff#\)	.	.	.	.	.	.	.	.	.	.	.	.	.	.	.	.
.	.	.	8d/	.	8gg#\J	.	.	.	.	.	.	.	.	.	.	.	.	.	.	.	.
.	.	.	8c#/L	.	8aa\L	.	.	.	.	.	.	.	.	.	.	.	.	.	.	.	.
!	!	!	!	!	!LO:TX:t=P:problem:mixed beam	!	!	!	!	!	!	!	!	!	!	!	!	!	!	!	!
.	.	.	8A/	.	8a\	.	.	.	.	.	.	.	.	.	.	.	.	.	.	.	.
.	.	.	8B/	.	8aa\	.	.	.	.	.	.	.	.	.	.	.	.	.	.	.	.
.	.	.	8c#/J	.	8ggn\J	.	.	.	.	.	.	.	.	.	.	.	.	.	.	.	.
=62	=62	=62	=62	=62	=62	=62	=62	=62	=62	=62	=62	=62	=62	=62	=62	=62	=62	=62	=62	=62	=62
.	.	.	4.d/	.	8ff#\L	.	.	.	.	.	.	1r	.	.	1r	.	.	.	.	1ryy	1ryy
.	.	.	.	.	(8dd\	.	.	.	.	.	.	.	.	.	.	.	.	.	.	.	.
.	.	.	.	.	8ee\)	.	.	.	.	.	.	.	.	.	.	.	.	.	.	.	.
.	.	.	8cn/	.	8ff#\J	.	.	.	.	.	.	.	.	.	.	.	.	.	.	.	.
.	.	.	(8B/L	.	8gg\L	.	.	.	.	.	.	.	.	.	.	.	.	.	.	.	.
.	.	.	8f#/	.	(8ff#\	.	.	.	.	.	.	.	.	.	.	.	.	.	.	.	.
.	.	.	8g/	.	8ee\)	.	.	.	.	.	.	.	.	.	.	.	.	.	.	.	.
.	.	.	8g#X/J)	.	8dd\J	.	.	.	.	.	.	.	.	.	.	.	.	.	.	.	.
!	!	!	!	!	!LO:LB:g=original	!	!	!	!	!	!	!	!	!	!	!	!	!	!	!	!
=63	=63	=63	=63	=63	=63	=63	=63	=63	=63	=63	=63	=63	=63	=63	=63	=63	=63	=63	=63	=63	=63
.	.	.	4a/	.	4cc#\	.	.	.	.	.	.	4r	.	.	4r	.	.	.	.	1ryy	1ryy
!	!	!	!	!	!	!	!	!	!	!	!	!LO:TX:a:i:t=S.	!	!	!	!	!	!	!	!	!
.	.	.	4r	.	4r	.	.	.	.	.	.	4cc#\	Chri-	.	4ee\	Chri-	.	.	.	.	.
.	.	.	2r	.	2r	.	.	.	.	.	.	4cc#\	-ste	.	4ee\	-ste	.	.	.	.	.
.	.	.	.	.	.	.	.	.	.	.	.	4b\	e-	.	4dd\	e-	.	.	.	.	.
!	!	!	!	!	!	!	!LO:LB:g=original	!	!	!	!	!	!	!	!	!	!	!	!	!	!
=64	=64	=64	=64	=64	=64	=64	=64	=64	=64	=64	=64	=64	=64	=64	=64	=64	=64	=64	=64	=64	=64
!	!	!	!	!	!	!	!	!	!LO:TX:a:t=Solo	!	!	!	!	!	!	!	!	!	!	!	!
0r	.	.	1r	.	8r	.	4r	.	4r	.	.	4.b\	-lei-	.	4.dd\	-lei-	.	0r	0r	1ryy	1ryy
.	.	.	.	.	4a\	p	.	.	.	.	.	.	.	.	.	.	.	.	.	.	.
.	.	.	.	.	.	.	(4G#X\	Chris-	(4B\	Chri-	.	.	.	.	.	.	.	.	.	.	.
*	*	*	*	*	*	*	*	*	*	*	*	*16\right	*	*	*	*	*	*	*	*	*
.	.	.	.	.	4a\	.	.	.	.	.	.	16cc#\LL	.	.	(16ee\LL	.	.	.	.	.	.
.	.	.	.	.	.	.	.	.	.	.	.	16b\JJ	.	.	16dd\JJ)	.	.	.	.	.	.
.	.	.	.	.	.	.	4A\)	-te	4c#\)	.	.	4a\	-son	.	4cc#\	-son	.	.	.	.	.
.	.	.	.	.	4a\	.	.	.	.	.	.	.	.	.	.	.	.	.	.	.	.
.	.	.	.	.	.	.	4B\	e	4d\	.	.	4r	.	.	4r	.	.	.	.	.	.
.	.	.	.	.	8a\	.	.	.	.	.	.	.	.	.	.	.	.	.	.	.	.
!	!	!	!	!	!	!	!	!	!	!	!	!	!	!	!LO:LB:g=original	!	!	!	!	!	!
=65	=65	=65	=65	=65	=65	=65	=65	=65	=65	=65	=65	=65	=65	=65	=65	=65	=65	=65	=65	=65	=65
.	.	.	8r	.	8a/	.	4c#\	lei-	4e\	-ste	.	4r	.	.	4r	.	.	.	.	1ryy	1ryy
.	.	.	4A/	.	4a/	.	.	.	.	.	.	.	.	.	.	.	.	.	.	.	.
.	.	.	.	.	.	.	8c#\	-son	8e\	.	.	4ee\	Chri-	.	4gg\	Chri-	.	.	.	.	.
.	.	.	4A/	.	4a/	.	8r	.	8r	.	.	.	.	.	.	.	.	.	.	.	.
.	.	.	.	.	.	.	2r	.	2r	.	.	4ee\	-ste	.	4gg\	-ste	.	.	.	.	.
.	.	.	4A/	.	4a/	.	.	.	.	.	.	.	.	.	.	.	.	.	.	.	.
.	.	.	.	.	.	.	.	.	.	.	.	4dd\	e-	.	4ffn\	e-	.	.	.	.	.
.	.	.	8A/	.	8a/	.	.	.	.	.	.	.	.	.	.	.	.	.	.	.	.
!	!	!	!	!	!	!	!	!	!	!	!	!LO:LB:g=original	!	!	!	!	!	!	!	!	!
=66	=66	=66	=66	=66	=66	=66	=66	=66	=66	=66	=66	=66	=66	=66	=66	=66	=66	=66	=66	=66	=66
8r	.	.	8A/	.	8a/	.	4r	.	4r	.	.	4.dd\	-lei-	.	4.ff#\	-lei-	.	1r	1r	1ryy	1ryy
8AA/L	6 4	.	4A/	.	4a/	.	.	.	.	.	.	.	.	.	.	.	.	.	.	.	.
8AA/	.	.	.	.	.	.	4d\	Chri-	4fn\	e-	.	.	.	.	.	.	.	.	.	.	.
8AA/J	.	.	4A/	.	4a/	.	.	.	.	.	.	16ee\LL	.	.	(16gg\LL	.	.	.	.	.	.
.	.	.	.	.	.	.	.	.	.	.	.	16dd\JJ	.	.	16ff#\JJ)	.	.	.	.	.	.
*tremolo	*	*	*	*	*	*	*	*	*	*	*	*	*	*	*	*	*	*	*	*	*
!	!	!	!	!	!	!	!	!	!LO:LB:g=original	!	!	!	!	!	!	!	!	!	!	!	!
8AA/L	5 3	.	.	.	.	.	(4c#\	-ste	4e\	-lei-	.	4cc#\	-son	.	4ee\	-son	.	.	.	.	.
8AA/	.	.	4A/	.	4a/	.	.	.	.	.	.	.	.	.	.	.	.	.	.	.	.
8AA/	.	.	.	.	.	.	4B\)	e-	4d\	.	.	4r	.	.	4r	.	.	.	.	.	.
8AA/J	.	.	8A/	.	8a/	.	.	.	.	.	.	.	.	.	.	.	.	.	.	.	.
*Xtremolo	*	*	*	*	*	*	*	*	*	*	*	*	*	*	*	*	*	*	*	*	*
!LO:LB:g=original	!	!	!LO:LB:g=original	!	!	!	!	!	!	!	!	!	!	!	!	!	!	!	!LO:LB:g=original	!	!
=67	=67	=67	=67	=67	=67	=67	=67	=67	=67	=67	=67	=67	=67	=67	=67	=67	=67	=67	=67	=67	=67
*	*	*	*tremolo	*	*	*	*	*	*	*	*	*	*	*	*	*	*	*	*	*	*
*	*	*	*	*	*^	*	*	*	*	*	*	*	*	*	*	*	*	*	*	*	*
!	!	!	!	!	!	!LO:DY:t=f:	!	!	!	!	!	!	!	!	!	!	!	!	!	!LO:N:vis=2	!	!
*	*	*	*	*	*	*	*	*	*	*	*	*	*	*ij	*	*	*	*	*	*	*	*
8G\L	2	.	16e/LL	.	2ccc#\	16a\LL	f	8A\	-lei-	2c#\	-son	.	2a\	Chri-	.	2ee\	Chri-	.	1a	1a	1ryy	1ryy
.	.	.	16a/	.	.	16a\	.	.	.	.	.	.	.	.	.	.	.	.	.	.	.	.
8A\	.	.	16e/	.	.	16a\	.	8A\	-son	.	.	.	.	.	.	.	.	.	.	.	.	.
.	.	.	16a/	.	.	16a\	.	.	.	.	.	.	.	.	.	.	.	.	.	.	.	.
8G\	.	.	16e/	.	.	16a\	.	8r	.	.	.	.	.	.	.	.	.	.	.	.	.	.
.	.	.	16a/	.	.	16a\	.	.	.	.	.	.	.	.	.	.	.	.	.	.	.	.
8A\J	.	.	16e/	.	.	16a\	.	8A\	e-	.	.	.	.	.	.	.	.	.	.	.	.	.
.	.	.	16a/JJ	.	.	16a\JJ	.	.	.	.	.	.	.	.	.	.	.	.	.	.	.	.
8F#\L	6	.	16f#/LL	.	4ddd\	4a\	.	8d\L	-lei	4d\	e-	.	4a\	-ste	.	4ff#X\	-ste	.	.	.	.	.
.	.	.	16a/	.	.	.	.	.	.	.	.	.	.	.	.	.	.	.	.	.	.	.
!	!	!	!	!	!	!	!	!LO:TX:t=P:problem:mixed beam	!	!	!	!	!	!	!	!	!	!	!	!	!	!
8A\	.	.	16f#/	.	.	.	.	16D\L	.	.	.	.	.	.	.	.	.	.	.	.	.	.
.	.	.	16a/	.	.	.	.	16E\JJ	.	.	.	.	.	.	.	.	.	.	.	.	.	.
8F#\	.	.	16f#/	.	4ryy	4rc	.	8F#/L	.	4r	.	.	4r	.	.	4r	.	.	.	.	.	.
.	.	.	16a/	.	.	.	.	.	.	.	.	.	.	.	.	.	.	.	.	.	.	.
8A\J	.	.	16f#/	.	.	.	.	8D/J	.	.	.	.	.	.	.	.	.	.	.	.	.	.
.	.	.	16a/JJ	.	.	.	.	.	.	.	.	.	.	.	.	.	.	.	.	.	.	.
*	*	*	*	*	*v	*v	*	*	*	*	*	*	*	*	*	*	*	*	*	*	*	*
!	!	!	!	!	!	!	!	!	!	!	!	!	!	!	!	!	!	!LO:LB:g=original	!	!	!
=68	=68	=68	=68	=68	=68	=68	=68	=68	=68	=68	=68	=68	=68	=68	=68	=68	=68	=68	=68	=68	=68
*	*	*	*	*	*	*	*	*	*	*	*	*	*	*	*	*ij	*	*	*	*	*
8c#\L	6	.	16g/LL	.	4.a\ 4.ee	.	4A\	son	2e\	-lei-	.	2a\	Chri-	.	2gg\	Chri-	.	1a	1a	1ryy	1ryy
.	.	.	16a/	.	.	.	.	.	.	.	.	.	.	.	.	.	.	.	.	.	.
8A\	.	.	16g/	.	.	.	.	.	.	.	.	.	.	.	.	.	.	.	.	.	.
.	.	.	16a/	.	.	.	.	.	.	.	.	.	.	.	.	.	.	.	.	.	.
8c#\	.	.	16g/	.	.	.	8r	.	.	.	.	.	.	.	.	.	.	.	.	.	.
.	.	.	16a/	.	.	.	.	.	.	.	.	.	.	.	.	.	.	.	.	.	.
*	*	*	*	*	*	*	*	*ij	*	*	*	*	*	*	*	*	*	*	*	*	*
8A\J	.	.	16g/	.	(16ff#\LL	.	8A\	e-	.	.	.	.	.	.	.	.	.	.	.	.	.
.	.	.	16a/JJ	.	16gg\JJ)	.	.	.	.	.	.	.	.	.	.	.	.	.	.	.	.
!	!	!	!	!	!	!	!LO:LB:g=original	!	!	!	!	!	!	!	!	!	!	!	!	!	!
8d\L	.	.	16f#/LL	.	4d/ 4a 4ff#	.	8d\L	-lei-	4d\	-son	.	4a\	-ste	.	4ff#\	-ste	.	.	.	.	.
.	.	.	16a/	.	.	.	.	.	.	.	.	.	.	.	.	.	.	.	.	.	.
!	!	!	!	!	!	!	!LO:TX:t=P:problem:mixed beam	!	!	!	!	!	!	!	!	!	!	!	!	!	!
8A'\	.	.	16f#/	.	.	.	16D\L	.	.	.	.	.	.	.	.	.	.	.	.	.	.
.	.	.	16a/	.	.	.	16E\JJ	.	.	.	.	.	.	.	.	.	.	.	.	.	.
8d\	.	.	16f#/	.	4r	.	8F#/L	.	4r	.	.	4r	.	.	4r	.	.	.	.	.	.
.	.	.	16a/	.	.	.	.	.	.	.	.	.	.	.	.	.	.	.	.	.	.
8A\J	.	.	16f#/	.	.	.	8D/J	.	.	.	.	.	.	.	.	.	.	.	.	.	.
.	.	.	16a/JJ	.	.	.	.	.	.	.	.	.	.	.	.	.	.	.	.	.	.
=69	=69	=69	=69	=69	=69	=69	=69	=69	=69	=69	=69	=69	=69	=69	=69	=69	=69	=69	=69	=69	=69
*	*	*	*	*	*^	*	*	*	*	*	*	*	*	*	*	*	*	*	*	*	*
*	*	*	*	*	*	*	*	*	*	*	*ij	*	*	*	*	*	*	*	*	*	*	*
8G\L	2	.	16e/LL	.	2ccc#\	16a\LL	.	4A\	-son	2c#\	Chri-	.	2a\	Chri-	.	2ee\	Chri-	.	1a	1a	1ryy	1ryy
.	.	.	16a/	.	.	16a\	.	.	.	.	.	.	.	.	.	.	.	.	.	.	.	.
8A\	.	.	16e/	.	.	16a\	.	.	.	.	.	.	.	.	.	.	.	.	.	.	.	.
.	.	.	16a/	.	.	16a\	.	.	.	.	.	.	.	.	.	.	.	.	.	.	.	.
8G\	.	.	16e/	.	.	16a\	.	8r	.	.	.	.	.	.	.	.	.	.	.	.	.	.
.	.	.	16a/	.	.	16a\	.	.	.	.	.	.	.	.	.	.	.	.	.	.	.	.
*	*	*	*	*	*	*	*	*	*Xij	*	*	*	*	*	*	*	*	*	*	*	*	*
8A\J	.	.	16e/	.	.	16a\	.	8A\	e-	.	.	.	.	.	.	.	.	.	.	.	.	.
.	.	.	16a/JJ	.	.	16a\JJ	.	.	.	.	.	.	.	.	.	.	.	.	.	.	.	.
8F#\L	6	.	16f#/LL	.	4ddd\	4a\	.	8d\L	-lei-	4d\	-ste	.	4a\	-ste	.	4ff#\	-ste	.	.	.	.	.
.	.	.	16a/	.	.	.	.	.	.	.	.	.	.	.	.	.	.	.	.	.	.	.
!	!	!	!	!	!	!	!	!LO:TX:t=P:problem:mixed beam	!	!	!	!	!	!	!	!	!	!	!	!	!	!
8A\	.	.	16f#/	.	.	.	.	16D\L	.	.	.	.	.	.	.	.	.	.	.	.	.	.
.	.	.	16a/	.	.	.	.	16E\JJ	.	.	.	.	.	.	.	.	.	.	.	.	.	.
8F#\	.	.	16f#/	.	4ryy	4rc	.	8F#/L	.	4r	.	.	4r	.	.	4r	.	.	.	.	.	.
.	.	.	16a/	.	.	.	.	.	.	.	.	.	.	.	.	.	.	.	.	.	.	.
8A\J	.	.	16f#/	.	.	.	.	8D/J	.	.	.	.	.	.	.	.	.	.	.	.	.	.
.	.	.	16a/JJ	.	.	.	.	.	.	.	.	.	.	.	.	.	.	.	.	.	.	.
!	!	!	!	!	!LO:TX:b:i:t=Seque Pater	!	!	!	!	!	!	!	!	!	!	!	!	!	!	!	!	!
*	*	*	*	*	*	*	*	*	*	*	*Xij	*	*	*	*	*	*Xij	*	*	*	*	*
*	*	*	*	*	*v	*v	*	*	*	*	*	*	*	*	*	*	*	*	*	*	*	*
!	!	!	!	!	!LO:PB:g=original	!	!	!	!	!	!	!	!	!	!	!	!	!	!	!	!
=70	=70	=70	=70	=70	=70	=70	=70	=70	=70	=70	=70	=70	=70	=70	=70	=70	=70	=70	=70	=70	=70
8c#\L	6 5	.	16g/LL	.	4.a\ 4.ee	.	4A\	-son	2e\	Chri-	.	2a\	Chri-	.	2gg\	Chri-	.	1a	1a	1ryy	1ryy
.	.	.	16a/	.	.	.	.	.	.	.	.	.	.	.	.	.	.	.	.	.	.
8A\	.	.	16g/	.	.	.	.	.	.	.	.	.	.	.	.	.	.	.	.	.	.
.	.	.	16a/	.	.	.	.	.	.	.	.	.	.	.	.	.	.	.	.	.	.
8c#\	.	.	16g/	.	.	.	8r	.	.	.	.	.	.	.	.	.	.	.	.	.	.
.	.	.	16a/	.	.	.	.	.	.	.	.	.	.	.	.	.	.	.	.	.	.
*	*	*	*	*	*	*	*	*ij	*	*	*	*	*	*	*	*	*	*	*	*	*
8A\J	.	.	16g/	.	(16ff#\LL	.	8A\	e-	.	.	.	.	.	.	.	.	.	.	.	.	.
.	.	.	16a/JJ	.	16gg\JJ)	.	.	.	.	.	.	.	.	.	.	.	.	.	.	.	.
8d\L	.	.	16f#/LL	.	4d/ 4a 4ff#	.	8d\L	-lei-	4d\	-ste	.	4a\	-ste	.	4ff#\	-ste	.	.	.	.	.
.	.	.	16a/	.	.	.	.	.	.	.	.	.	.	.	.	.	.	.	.	.	.
!	!	!	!	!	!	!	!LO:TX:t=P:problem:mixed beam	!	!	!	!	!	!	!	!	!	!	!	!	!	!
8A\	.	.	16f#/	.	.	.	16D\L	.	.	.	.	.	.	.	.	.	.	.	.	.	.
.	.	.	16a/	.	.	.	16E\JJ	.	.	.	.	.	.	.	.	.	.	.	.	.	.
8d\	.	.	16f#/	.	4r	.	8F#/L	.	4r	.	.	4r	.	.	4r	.	.	.	.	.	.
.	.	.	16a/	.	.	.	.	.	.	.	.	.	.	.	.	.	.	.	.	.	.
8A\J	.	.	16f#/	.	.	.	8D/J	.	.	.	.	.	.	.	.	.	.	.	.	.	.
.	.	.	16a/JJ	.	.	.	.	.	.	.	.	.	.	.	.	.	.	.	.	.	.
*	*	*	*Xtremolo	*	*	*	*	*	*	*	*	*	*Xij	*	*	*	*	*	*	*	*
=71	=71	=71	=71	=71	=71	=71	=71	=71	=71	=71	=71	=71	=71	=71	=71	=71	=71	=71	=71	=71	=71
!	!	!	!	!	!	!	!	!	!LO:TX:a:t=3	!	!	!	!	!	!	!	!	!	!	!	!
4c#\	6	.	4e/ 4a	.	8r	.	4A\	-son	0r	.	.	0r	.	.	0r	.	.	4a/	4a/	1ryy	1ryy
.	.	.	.	.	8a\L	p	.	.	.	.	.	.	.	.	.	.	.	.	.	.	.
4r	.	.	4r	.	(8b\	.	4r	.	.	.	.	.	.	.	.	.	.	4r	4r	.	.
.	.	.	.	.	8cc#\J)	.	.	.	.	.	.	.	.	.	.	.	.	.	.	.	.
2r	.	.	2r	.	(8dd\L	.	2r	.	.	.	.	.	.	.	.	.	.	2r	2r	.	.
.	.	.	.	.	8b\)	.	.	.	.	.	.	.	.	.	.	.	.	.	.	.	.
.	.	.	.	.	(8ee\	.	.	.	.	.	.	.	.	.	.	.	.	.	.	.	.
.	.	.	.	.	8dd\J)	.	.	.	.	.	.	.	.	.	.	.	.	.	.	.	.
*	*	*	*	*	*	*	*	*Xij	*	*	*	*	*	*	*	*	*	*	*	*	*
!LO:LB:g=original	!	!	!	!	!	!	!	!	!	!	!	!	!	!	!	!	!	!	!	!	!
=72	=72	=72	=72	=72	=72	=72	=72	=72	=72	=72	=72	=72	=72	=72	=72	=72	=72	=72	=72	=72	=72
1r	.	.	8r	p	4cc#\	.	0r	.	.	.	.	.	.	.	.	.	.	0r	0r	1ryy	1ryy
.	.	.	(8a\L	.	.	.	.	.	.	.	.	.	.	.	.	.	.	.	.	.	.
.	.	.	8b\)	.	2aa\	.	.	.	.	.	.	.	.	.	.	.	.	.	.	.	.
.	.	.	(8cc#\J	.	.	.	.	.	.	.	.	.	.	.	.	.	.	.	.	.	.
.	.	.	(8dd\L)	.	.	.	.	.	.	.	.	.	.	.	.	.	.	.	.	.	.
.	.	.	8b\)	.	.	.	.	.	.	.	.	.	.	.	.	.	.	.	.	.	.
.	.	.	(8ee\	.	4gg\	.	.	.	.	.	.	.	.	.	.	.	.	.	.	.	.
.	.	.	8dd\J)	.	.	.	.	.	.	.	.	.	.	.	.	.	.	.	.	.	.
!	!	!	!LO:LB:g=original	!	!	!	!	!	!	!	!	!	!	!	!	!	!	!	!	!	!
=73	=73	=73	=73	=73	=73	=73	=73	=73	=73	=73	=73	=73	=73	=73	=73	=73	=73	=73	=73	=73	=73
8r	.	.	4cc#\	.	4gg\	.	.	.	1r	.	.	1r	.	.	1r	.	.	.	.	1ryy	1ryy
8A\L	4	.	.	.	.	.	.	.	.	.	.	.	.	.	.	.	.	.	.	.	.
8B\	5	.	2dd\	.	2ff#\	.	.	.	.	.	.	.	.	.	.	.	.	.	.	.	.
8A\J	.	.	.	.	.	.	.	.	.	.	.	.	.	.	.	.	.	.	.	.	.
8G\L	6 5	.	.	.	.	.	.	.	.	.	.	.	.	.	.	.	.	.	.	.	.
8E\	.	.	.	.	.	.	.	.	.	.	.	.	.	.	.	.	.	.	.	.	.
8A\	.	.	4cc#\	.	4ee\	.	.	.	.	.	.	.	.	.	.	.	.	.	.	.	.
!LO:TX:t=P:problem:mixed beam	!	!	!	!	!	!	!	!	!	!	!	!	!	!	!	!	!	!	!	!	!
8AA\J	.	.	.	.	.	.	.	.	.	.	.	.	.	.	.	.	.	.	.	.	.
!	!	!	!	!	!	!	!	!	!LO:PB:g=original	!	!	!	!	!	!	!	!	!	!	!	!
=74	=74	=74	=74	=74	=74	=74	=74	=74	=74	=74	=74	=74	=74	=74	=74	=74	=74	=74	=74	=74	=74
!	!	!	!LO:TX:a:i:t= brak jednego pustego taktu	!	!	!	!	!	!	!	!	!	!	!	!	!	!	!	!	!	!
*	*	*	*tremolo	*	*	*	*	*	*	*	*	*	*	*	*	*	*	*	*	*	*
8D\L	.	.	16dd\LL	.	16dd\LL	f	4.d\	Ky-	4r	.	.	4.a\	Ky-	.	4r	.	.	2dd\	2dd\	1ryy	1ryy
.	.	.	16dd\	.	16dd\	.	.	.	.	.	.	.	.	.	.	.	.	.	.	.	.
16D\L	.	.	16dd\	.	16dd\	.	.	.	.	.	.	.	.	.	.	.	.	.	.	.	.
16E\JJ	.	.	16dd\	.	16dd\JJ	.	.	.	.	.	.	.	.	.	.	.	.	.	.	.	.
8F#\L	.	.	16dd\	.	16ff#\LL	.	.	.	2d\	Chri-	.	.	.	.	2ff#\	Ky-	.	.	.	.	.
.	.	.	16dd\	.	16ff#\	.	.	.	.	.	.	.	.	.	.	.	.	.	.	.	.
8D\J	.	.	16dd\	.	16ff#\	.	8d\	-ri-	.	.	.	8a\	-ri-	.	.	.	.	.	.	.	.
.	.	.	16dd\	.	16ff#\	.	.	.	.	.	.	.	.	.	.	.	.	.	.	.	.
!	!	!	!	!	!	!	!LO:LB:g=original	!	!	!	!	!	!	!	!	!	!	!	!	!	!
8A\L	6 4	.	16dd\	.	16ff#\	.	4A\	-e	.	.	.	4a\	-e	.	.	.	.	2a/	2a/	.	.
.	.	.	16dd\	.	16ff#\	.	.	.	.	.	.	.	.	.	.	.	.	.	.	.	.
!LO:TX:t=P:problem:mixed beam	!	!	!	!	!	!	!	!	!	!	!	!	!	!	!	!	!	!	!	!	!
16AA\L	.	.	16dd\	.	16ff#\	.	.	.	.	.	.	.	.	.	.	.	.	.	.	.	.
16BB\JJ	.	.	16dd\JJ	.	16ff#\JJ	.	.	.	.	.	.	.	.	.	.	.	.	.	.	.	.
8C#/L	6	.	16cc#\LL	.	16ee\LL	.	4A\	e-	4c#\	-ste	.	4a\	e-	.	4ee\	-ri-	.	.	.	.	.
.	.	.	16cc#\	.	16ee\	.	.	.	.	.	.	.	.	.	.	.	.	.	.	.	.
8AA/J	.	.	16cc#\	.	16ee\	.	.	.	.	.	.	.	.	.	.	.	.	.	.	.	.
.	.	.	16cc#\JJ	.	16ee\JJ	.	.	.	.	.	.	.	.	.	.	.	.	.	.	.	.
!	!	!	!	!	!	!	!	!	!	!	!	!LO:LB:g=original	!	!	!	!	!	!	!	!	!
=75	=75	=75	=75	=75	=75	=75	=75	=75	=75	=75	=75	=75	=75	=75	=75	=75	=75	=75	=75	=75	=75
8BB/L	4 2	.	16cc#\LL	.	16ee\LL	.	2B\	-lei-	4c#\	e-	.	4g\	-lei-	.	4ee\	-e	.	4d/	4dd\	1ryy	1ryy
.	.	.	16cc#\	.	16ee\	.	.	.	.	.	.	.	.	.	.	.	.	.	.	.	.
16BB/L	.	.	16cc#\	.	16ee\	.	.	.	.	.	.	.	.	.	.	.	.	.	.	.	.
16C#/JJ	.	.	16cc#\JJ	.	16ee\JJ	.	.	.	.	.	.	.	.	.	.	.	.	.	.	.	.
8D/L	6	.	16bb\LL	.	16ddd\LL	.	.	.	2B\	-lei-	.	2f#\	.	.	2dd\	.	.	4r	4r	.	.
.	.	.	16bb\	.	16ddd\	.	.	.	.	.	.	.	.	.	.	.	.	.	.	.	.
8BB/J	.	.	16bb\	.	16ddd\	.	.	.	.	.	.	.	.	.	.	.	.	.	.	.	.
.	.	.	16bb\	.	16ddd\	.	.	.	.	.	.	.	.	.	.	.	.	.	.	.	.
8F#\L	6 4	.	16bb\	.	16ddd\	.	2F#\	-son	.	.	.	.	.	.	.	.	.	2r	2r	.	.
.	.	.	16bb\	.	16ddd\	.	.	.	.	.	.	.	.	.	.	.	.	.	.	.	.
16F#\L	.	.	16bb\	.	16ddd\	.	.	.	.	.	.	.	.	.	.	.	.	.	.	.	.
16G\JJ	.	.	16bb\JJ	.	16ddd\JJ	.	.	.	.	.	.	.	.	.	.	.	.	.	.	.	.
8A\L	6	.	16aa\LL	.	16ccc#\LL	.	.	.	4A\	.	.	4f#\	.	.	4cc#\	e-	.	.	.	.	.
.	.	.	16aa\	.	16ccc#\	.	.	.	.	.	.	.	.	.	.	.	.	.	.	.	.
8F#\J	.	.	16aa\	.	16ccc#\	.	.	.	.	.	.	.	.	.	.	.	.	.	.	.	.
.	.	.	16aa\JJ	.	16ccc#\JJ	.	.	.	.	.	.	.	.	.	.	.	.	.	.	.	.
=76	=76	=76	=76	=76	=76	=76	=76	=76	=76	=76	=76	=76	=76	=76	=76	=76	=76	=76	=76	=76	=76
8G\L	4 2	.	16aa\LL	.	16ccc#\LL	.	2G\	.	4A\	-son	.	4g\	.	.	4cc#\	-lei-	.	0r	0r	1ryy	1ryy
.	.	.	16aa\	.	16ccc#\	.	.	.	.	.	.	.	.	.	.	.	.	.	.	.	.
16G\L	.	.	16aa\	.	16ccc#\	.	.	.	.	.	.	.	.	.	.	.	.	.	.	.	.
16A\JJ	.	.	16aa\JJ	.	16ccc#\JJ	.	.	.	.	.	.	.	.	.	.	.	.	.	.	.	.
!LO:LB:g=original	!	!	!	!	!	!	!	!	!	!	!	!	!	!	!	!	!	!	!	!	!
8B\L	6	.	16gg\LL	.	16bb\LL	.	.	.	2g\	e-	.	2g\	.	.	2bb\	.	.	.	.	.	.
.	.	.	16gg\	.	16bb\	.	.	.	.	.	.	.	.	.	.	.	.	.	.	.	.
8G\J	.	.	16gg\	.	16bb\	.	.	.	.	.	.	.	.	.	.	.	.	.	.	.	.
.	.	.	16gg\	.	16bb\	.	.	.	.	.	.	.	.	.	.	.	.	.	.	.	.
8d\L	6 4	.	16gg\	.	16bb\	.	2D\	.	.	.	.	.	.	.	.	.	.	.	.	.	.
.	.	.	16gg\	.	16bb\	.	.	.	.	.	.	.	.	.	.	.	.	.	.	.	.
!LO:TX:t=P:problem:mixed beam	!	!	!	!	!	!	!	!	!	!	!	!	!	!	!	!	!	!	!	!	!
16D\L	.	.	16gg\	.	16bb\	.	.	.	.	.	.	.	.	.	.	.	.	.	.	.	.
16E\JJ	.	.	16gg\JJ	.	16bb\JJ	.	.	.	.	.	.	.	.	.	.	.	.	.	.	.	.
8F#\L	6	.	16ff#\LL	.	16aa\LL	.	.	.	4f#\	-lei-	.	4a\	-son	.	4aa\	.	.	.	.	.	.
.	.	.	16ff#\	.	16aa\	.	.	.	.	.	.	.	.	.	.	.	.	.	.	.	.
8D\J	.	.	16ff#\	.	16aa\	.	.	.	.	.	.	.	.	.	.	.	.	.	.	.	.
.	.	.	16ff#\JJ	.	16aa\JJ	.	.	.	.	.	.	.	.	.	.	.	.	.	.	.	.
!	!	!	!	!	!LO:LB:g=original	!	!	!	!	!	!	!	!	!	!	!	!	!	!	!	!
=77	=77	=77	=77	=77	=77	=77	=77	=77	=77	=77	=77	=77	=77	=77	=77	=77	=77	=77	=77	=77	=77
8E\L	4 2	.	16ff#\LL	.	16aa\LL	.	2E\	.	4f#\	.	.	2b\	Chri-	.	4aa\	.	.	.	.	1ryy	1ryy
.	.	.	16ff#\	.	16aa\	.	.	.	.	.	.	.	.	.	.	.	.	.	.	.	.
16E\L	.	.	16ff#\	.	16aa\	.	.	.	.	.	.	.	.	.	.	.	.	.	.	.	.
16F#\JJ	.	.	16ff#\JJ	.	16aa\JJ	.	.	.	.	.	.	.	.	.	.	.	.	.	.	.	.
8G\L	6	.	16ee\LL	.	16gg\LL	.	.	.	2e\	.	.	.	.	.	2gg\	.	.	.	.	.	.
.	.	.	16ee\	.	16gg\	.	.	.	.	.	.	.	.	.	.	.	.	.	.	.	.
8E\J	.	.	16ee\	.	16gg\	.	.	.	.	.	.	.	.	.	.	.	.	.	.	.	.
.	.	.	16ee\	.	16gg\	.	.	.	.	.	.	.	.	.	.	.	.	.	.	.	.
8B\L	6 4	.	16ee\	.	16gg\	.	2BB\	.	.	.	.	4b\	-ste	.	.	.	.	.	.	.	.
.	.	.	16ee\	.	16gg\	.	.	.	.	.	.	.	.	.	.	.	.	.	.	.	.
!LO:TX:t=P:problem:mixed beam	!	!	!	!	!	!	!	!	!	!	!	!	!	!	!	!	!	!	!	!	!
16BB\L	.	.	16ee\	.	16gg\	.	.	.	.	.	.	.	.	.	.	.	.	.	.	.	.
16C#\JJ	.	.	16ee\JJ	.	16gg\JJ	.	.	.	.	.	.	.	.	.	.	.	.	.	.	.	.
8D/L	6	.	16dd\LL	.	16ff#\LL	.	.	.	4d\	.	.	4b\	e-	.	4ff#\	.	.	.	.	.	.
.	.	.	16dd\	.	16ff#\	.	.	.	.	.	.	.	.	.	.	.	.	.	.	.	.
8BB/J	.	.	16dd\	.	16ff#\	.	.	.	.	.	.	.	.	.	.	.	.	.	.	.	.
.	.	.	16dd\JJ	.	16ff#\JJ	.	.	.	.	.	.	.	.	.	.	.	.	.	.	.	.
=78	=78	=78	=78	=78	=78	=78	=78	=78	=78	=78	=78	=78	=78	=78	=78	=78	=78	=78	=78	=78	=78
8C#\L	4 2	.	16dd\LL	.	16ff#\LL	.	2C#\	e-	4d\	.	.	4a\	.	.	4ff#\	.	.	1r	1r	1ryy	1ryy
.	.	.	16dd\	.	16ff#\	.	.	.	.	.	.	.	.	.	.	.	.	.	.	.	.
16C#\L	.	.	16dd\	.	16ff#\	.	.	.	.	.	.	.	.	.	.	.	.	.	.	.	.
16D\JJ	.	.	16dd\JJ	.	16ff#\JJ	.	.	.	.	.	.	.	.	.	.	.	.	.	.	.	.
8E\L	6	.	16cc#\LL	.	16ee\LL	.	.	.	2c#\	.	.	4g\	-lei-	.	2ee\	.	.	.	.	.	.
.	.	.	16cc#\	.	16ee\	.	.	.	.	.	.	.	.	.	.	.	.	.	.	.	.
8C#\J	.	.	16cc#\	.	16ee\	.	.	.	.	.	.	.	.	.	.	.	.	.	.	.	.
.	.	.	16cc#\	.	16ee\	.	.	.	.	.	.	.	.	.	.	.	.	.	.	.	.
8G#X\L	6 4	.	16cc#\	.	16ee\	.	2G#X\	-lei-	.	.	.	2g#X\	.	.	.	.	.	.	.	.	.
.	.	.	16cc#\	.	16ee\	.	.	.	.	.	.	.	.	.	.	.	.	.	.	.	.
16G#\L	.	.	16cc#\	.	16ee\	.	.	.	.	.	.	.	.	.	.	.	.	.	.	.	.
16A\JJ	.	.	16cc#\JJ	.	16ee\JJ	.	.	.	.	.	.	.	.	.	.	.	.	.	.	.	.
8B\L	6	.	16b\LL	.	16dd\LL	.	.	.	4B\	.	.	.	.	.	4dd\	.	.	.	.	.	.
.	.	.	16b\	.	16dd\	.	.	.	.	.	.	.	.	.	.	.	.	.	.	.	.
8G#\J	.	.	16b\	.	16dd\	.	.	.	.	.	.	.	.	.	.	.	.	.	.	.	.
.	.	.	16b\JJ	.	16dd\JJ	.	.	.	.	.	.	.	.	.	.	.	.	.	.	.	.
*	*	*	*Xtremolo	*	*Xtremolo	*	*	*	*	*	*	*	*	*	*	*	*	*	*	*	*
=79	=79	=79	=79	=79	=79	=79	=79	=79	=79	=79	=79	=79	=79	=79	=79	=79	=79	=79	=79	=79	=79
4A\	.	.	4a\	.	8.cc#\L	.	4A\	-son	4A\	-son	.	4a\	-son	.	4cc#\	-son	.	4a/	4a/	1ryy	1ryy
.	.	.	.	.	16ee\K	.	.	.	.	.	.	.	.	.	.	.	.	.	.	.	.
4r	.	.	4r	.	8.dd\	.	4r	.	4r	.	.	4r	.	.	4r	.	.	4r	4r	.	.
.	.	.	.	.	16ff#\Jk	.	.	.	.	.	.	.	.	.	.	.	.	.	.	.	.
2r	.	.	2r	.	8.ee\L	.	2r	.	2r	.	.	2r	.	.	2r	.	.	2r	2r	.	.
.	.	.	.	.	16gg\K	.	.	.	.	.	.	.	.	.	.	.	.	.	.	.	.
.	.	.	.	.	8.ff#\	.	.	.	.	.	.	.	.	.	.	.	.	.	.	.	.
.	.	.	.	.	16aa\Jk	.	.	.	.	.	.	.	.	.	.	.	.	.	.	.	.
!LO:TX:b:t=Verte	!	!	!	!	!	!	!	!	!	!	!	!	!	!	!	!	!	!	!	!	!
!LO:PB:g=original	!	!	!	!	!	!	!	!	!LO:LB:g=original	!	!	!	!	!	!	!	!	!	!	!	!
=80	=80	=80	=80	=80	=80	=80	=80	=80	=80	=80	=80	=80	=80	=80	=80	=80	=80	=80	=80	=80	=80
*tremolo	*	*	*	*	*	*	*	*	*	*	*	*	*	*	*	*	*	*	*	*	*
!	!	!LO:DY:t=for	!	!	!	!	!	!	!	!	!	!	!	!	!	!	!	!	!	!	!
8d#X\L	6 5	f	2B/ 2f#	.	4.aa\	f	4.d#X\	Ky-	4.B\	Ky-	.	4.a\	Ky-	.	4.ff#\	Ky-	.	00r	00r	1ryy	1ryy
8d#X\	.	.	.	.	.	.	.	.	.	.	.	.	.	.	.	.	.	.	.	.	.
8d#X\	.	.	.	.	.	.	.	.	.	.	.	.	.	.	.	.	.	.	.	.	.
8d#X\J	.	.	.	.	16bb\LL	.	8d#\	-ri-	8B\	-ri-	.	8a\	-ri-	.	8ff#\	-ri-	.	.	.	.	.
.	.	.	.	.	16aa\JJ	.	.	.	.	.	.	.	.	.	.	.	.	.	.	.	.
4e\	#	.	4e/	.	4gg#X\	.	4e\	-e	4B\	-e	.	4g#X\	-e	.	4ee\	-e	.	.	.	.	.
4r	.	.	4r	.	4r	.	4r	.	4r	.	.	4r	.	.	4r	.	.	.	.	.	.
=81	=81	=81	=81	=81	=81	=81	=81	=81	=81	=81	=81	=81	=81	=81	=81	=81	=81	=81	=81	=81	=81
!	!	!	!	!	!	!	!	!	!	!	!	!LO:TX:a:t=1	!	!	!	!	!	!	!	!	!
1r	.	.	1r	.	8.b\L	.	1r	.	1r	.	.	1r	.	.	1r	.	.	.	.	1ryy	1rgyy
.	.	.	.	.	16dd\K	.	.	.	.	.	.	.	.	.	.	.	.	.	.	.	.
.	.	.	.	.	8.cc#\	.	.	.	.	.	.	.	.	.	.	.	.	.	.	.	.
.	.	.	.	.	16ee\Jk	.	.	.	.	.	.	.	.	.	.	.	.	.	.	.	.
.	.	.	.	.	8.dd\L	.	.	.	.	.	.	.	.	.	.	.	.	.	.	.	.
.	.	.	.	.	16ff#\K	.	.	.	.	.	.	.	.	.	.	.	.	.	.	.	.
.	.	.	.	.	8.ee\	.	.	.	.	.	.	.	.	.	.	.	.	.	.	.	.
.	.	.	.	.	16gg\Jk	.	.	.	.	.	.	.	.	.	.	.	.	.	.	.	.
!	!	!	!LO:LB:g=original	!	!	!	!	!	!	!	!	!	!	!	!	!	!	!	!	!	!
=82	=82	=82	=82	=82	=82	=82	=82	=82	=82	=82	=82	=82	=82	=82	=82	=82	=82	=82	=82	=82	=82
*	*	*	*	*	*	*	*	*ij	*	*ij	*	*	*ij	*	*	*ij	*	*	*	*	*
8c#\L	6 5	f	2A/ 2e	.	4.gg\	.	4.c#\	Ky-	4.A\	Ky-	.	4.gn\	Ky-	.	4.ee\	Ky-	.	.	.	1ryy	1ryy
8c#\	.	.	.	.	.	.	.	.	.	.	.	.	.	.	.	.	.	.	.	.	.
8c#\	.	.	.	.	.	.	.	.	.	.	.	.	.	.	.	.	.	.	.	.	.
8c#\J	.	.	.	.	(16aa\LL	.	8c#\	-ri-	8A\	-ri-	.	8g\	-ri-	.	8ee\	-ri-	.	.	.	.	.
.	.	.	.	.	16gg\JJ)	.	.	.	.	.	.	.	.	.	.	.	.	.	.	.	.
!	!	!	!	!	!	!	!LO:LB:g=original	!	!	!	!	!	!	!	!	!	!	!	!	!	!
4d\	.	.	4d/	.	4ff#\	.	4d\	-e	4A\	-e	.	4f#\	-e	.	4dd\	-e	.	.	.	.	.
4r	.	.	4r	.	4r	.	4r	.	4r	.	.	4r	.	.	4r	.	.	.	.	.	.
*	*	*	*	*	*	*	*	*Xij	*	*	*	*	*	*	*	*Xij	*	*	*	*	*
!	!	!	!	!	!LO:LB:g=original	!	!	!	!	!	!	!	!	!	!	!LO:LB:g=original	!	!	!	!	!
=83	=83	=83	=83	=83	=83	=83	=83	=83	=83	=83	=83	=83	=83	=83	=83	=83	=83	=83	=83	=83	=83
!	!	!	!	!	!	!	!	!	!	!	!	!LO:TX:a:t=1	!	!	!LO:TX:a:t=1	!	!	!	!	!	!
1r	.	.	1r	.	8.a\L	.	1r	.	1r	.	.	1r	.	.	1r	.	.	.	.	1ryy	1ryy
.	.	.	.	.	16cc#\K	.	.	.	.	.	.	.	.	.	.	.	.	.	.	.	.
.	.	.	.	.	8.b\	.	.	.	.	.	.	.	.	.	.	.	.	.	.	.	.
.	.	.	.	.	16dd\Jk	.	.	.	.	.	.	.	.	.	.	.	.	.	.	.	.
.	.	.	.	.	8.cc#\L	.	.	.	.	.	.	.	.	.	.	.	.	.	.	.	.
.	.	.	.	.	16ee\K	.	.	.	.	.	.	.	.	.	.	.	.	.	.	.	.
.	.	.	.	.	8.dd\	.	.	.	.	.	.	.	.	.	.	.	.	.	.	.	.
.	.	.	.	.	16ffn\Jk	.	.	.	.	.	.	.	.	.	.	.	.	.	.	.	.
!	!	!	!	!	!	!	!	!	!	!	!	!LO:LB:g=original	!	!	!	!	!	!	!	!	!
=84	=84	=84	=84	=84	=84	=84	=84	=84	=84	=84	=84	=84	=84	=84	=84	=84	=84	=84	=84	=84	=84
8G#X\L	7 n	f	4.dd\	f	4.ffn\	f	4.G#X\	Ky-	4.B\	Ky-	.	4.fn\	Ky-	.	4.dd\	Ky-	.	00r	00r	1ryy	1ryy
8G#X\	.	.	.	.	.	.	.	.	.	.	.	.	.	.	.	.	.	.	.	.	.
8G#X\	.	.	.	.	.	.	.	.	.	.	.	.	.	.	.	.	.	.	.	.	.
8G#X\J	.	.	16ee\LL	.	(16gg\LL	.	8G#\	-ri-	8B\	-ri-	.	8f\	-ri-	.	8dd\	-ri-	.	.	.	.	.
.	.	.	16dd\JJ	.	16ff\JJ)	.	.	.	.	.	.	.	.	.	.	.	.	.	.	.	.
4A\	.	.	4cc#\	.	4ee\	.	4A\	-e	4A\	-e	.	4e\	-e	.	4cc#\	-e	.	.	.	.	.
4r	.	.	4r	.	4r	.	4r	.	4r	.	.	4r	.	.	4r	.	.	.	.	.	.
*	*	*	*	*	*	*	*	*	*	*Xij	*	*	*	*	*	*	*	*	*	*	*
=85	=85	=85	=85	=85	=85	=85	=85	=85	=85	=85	=85	=85	=85	=85	=85	=85	=85	=85	=85	=85	=85
1r	.	.	4.d/	p	4.fn/	.	1r	.	1r	.	.	1r	.	.	1r	.	.	.	.	1ryy	1ryy
.	.	.	16e/LL	.	(16g/LL	.	.	.	.	.	.	.	.	.	.	.	.	.	.	.	.
.	.	.	16d/JJ	.	16f/JJ)	.	.	.	.	.	.	.	.	.	.	.	.	.	.	.	.
.	.	.	4c#/	.	4e/	.	.	.	.	.	.	.	.	.	.	.	.	.	.	.	.
.	.	.	4r	.	4r	.	.	.	.	.	.	.	.	.	.	.	.	.	.	.	.
=86	=86	=86	=86	=86	=86	=86	=86	=86	=86	=86	=86	=86	=86	=86	=86	=86	=86	=86	=86	=86	=86
*	*	*	*	*	*	*	*	*ij	*	*	*	*	*	*	*	*ij	*	*	*	*	*
8G#X\L	7 n	f	4.dd\	f	4.ffn\	.	4.G#X\	Ky-	4.B\	Ky-	.	4.fn\	Ky-	.	4.dd\	Ky-	.	.	.	1ryy	1ryy
8G#X\	.	.	.	.	.	.	.	.	.	.	.	.	.	.	.	.	.	.	.	.	.
8G#X\	.	.	.	.	.	.	.	.	.	.	.	.	.	.	.	.	.	.	.	.	.
8G#X\J	.	.	16ee\LL	.	(16gg\LL	.	8G#\	-ri-	8B\	-ri-	.	8f\	-ri-	.	8dd\	-ri-	.	.	.	.	.
.	.	.	16dd\JJ	.	16ff\JJ)	.	.	.	.	.	.	.	.	.	.	.	.	.	.	.	.
4A\	.	.	4cc#\	.	4ee\	.	4A\	-e	4A\	-e	.	4e\	-e	.	4cc#\	-e	.	.	.	.	.
4r	.	.	4r	.	4r	.	4r	.	4r	.	.	4r	.	.	4r	.	.	.	.	.	.
*	*	*	*	*	*	*	*	*Xij	*	*	*	*	*Xij	*	*	*	*	*	*	*	*
!	!	!	!	!	!	!	!	!	!LO:LB:g=original	!	!	!	!	!	!	!	!	!	!	!	!
=87	=87	=87	=87	=87	=87	=87	=87	=87	=87	=87	=87	=87	=87	=87	=87	=87	=87	=87	=87	=87	=87
!LO:TX:a:t=2	!	!	!	!	!	!	!	!	!	!	!	!	!	!	!	!	!	!	!	!	!
0r	.	.	4.d/	p	4.fn/	p	0r	.	0r	.	.	0r	.	.	0r	.	.	.	.	1ryy	1ryy
.	.	.	(16e/LL	.	(16g/LL	.	.	.	.	.	.	.	.	.	.	.	.	.	.	.	.
.	.	.	16d/JJ)	.	16f/JJ)	.	.	.	.	.	.	.	.	.	.	.	.	.	.	.	.
.	.	.	4c#/	.	4e/	.	.	.	.	.	.	.	.	.	.	.	.	.	.	.	.
.	.	.	4r	.	4r	.	.	.	.	.	.	.	.	.	.	.	.	.	.	.	.
=88	=88	=88	=88	=88	=88	=88	=88	=88	=88	=88	=88	=88	=88	=88	=88	=88	=88	=88	=88	=88	=88
!	!	!	!	!	!LO:TX:a:t=1	!	!	!	!	!	!	!	!	!	!	!	!	!	!	!	!
.	.	.	1r	.	1r	.	.	.	.	.	.	.	.	.	.	.	.	1r	1r	1ryy	1ryy
!	!	!	!LO:LB:g=original	!	!LO:LB:g=original	!	!	!	!	!	!	!	!	!	!	!	!	!	!	!	!
=89	=89	=89	=89	=89	=89	=89	=89	=89	=89	=89	=89	=89	=89	=89	=89	=89	=89	=89	=89	=89	=89
8D\L	.	f	4d/ 4dd	f	4d/ 4dd	f	4d\	Ky-	4A\	e-	f	4f#X\	Ky-	.	4dd\	Ky-	.	4f#/	4dd\	1ryy	1ryy
8D\	.	.	.	.	.	.	.	.	.	.	.	.	.	.	.	.	.	.	.	.	.
8D\	.	.	4d/ 4dd	.	4d/ 4dd	.	4d\	-ri-	4A\	-lei-	.	4f#\	-ri-	.	4dd\	-ri-	.	4f#/	4dd\	.	.
8D\J	.	.	.	.	.	.	.	.	.	.	.	.	.	.	.	.	.	.	.	.	.
8D\L	.	.	4d/ 4dd	.	4d/ 4dd	.	4d\	-e	4A\	-son	.	4f#\	-e	.	4dd\	-e	.	4f#/	4dd\	.	.
8D\	.	.	.	.	.	.	.	.	.	.	.	.	.	.	.	.	.	.	.	.	.
8D\	.	.	8r	.	8r	.	4r	.	4r	.	.	4r	.	.	4r	.	.	4r	4r	.	.
8D\J	.	.	8d/	.	8f#/	p	.	.	.	.	.	.	.	.	.	.	.	.	.	.	.
!LO:LB:g=original	!	!	!	!	!	!	!	!	!	!	!	!	!	!	!	!	!	!	!	!	!
=90	=90	=90	=90	=90	=90	=90	=90	=90	=90	=90	=90	=90	=90	=90	=90	=90	=90	=90	=90	=90	=90
8D\L	.	p	(8d/L	p	(8f#/L	.	1r	.	1A	e-	.	1f#	e-	.	1r	.	.	1r	1r	1ryy	1ryy
8D\	.	.	8f#/)	.	8a/)	.	.	.	.	.	.	.	.	.	.	.	.	.	.	.	.
8D\	.	.	(8d/	.	(8f#/	.	.	.	.	.	.	.	.	.	.	.	.	.	.	.	.
8D\J	.	.	8f#/J)	.	8a/J)	.	.	.	.	.	.	.	.	.	.	.	.	.	.	.	.
8D\L	.	.	(8d/L	.	(8f#/L	.	.	.	.	.	.	.	.	.	.	.	.	.	.	.	.
8D\	.	.	8f#/)	.	8a/J)	.	.	.	.	.	.	.	.	.	.	.	.	.	.	.	.
8D\	.	.	(8a/	.	(8dd\L	.	.	.	.	.	.	.	.	.	.	.	.	.	.	.	.
8D\J	.	.	8dd/J)	.	8ff#\J)	.	.	.	.	.	.	.	.	.	.	.	.	.	.	.	.
!	!	!	!	!	!	!	!LO:LB:g=original	!	!	!	!	!	!	!	!	!	!	!	!	!	!
=91	=91	=91	=91	=91	=91	=91	=91	=91	=91	=91	=91	=91	=91	=91	=91	=91	=91	=91	=91	=91	=91
!	!	!LO:DY:t=for	!	!	!	!	!	!	!	!	!LO:DY:a	!	!	!	!	!	!	!	!	!	!
8D\L	.	f	4d/ 4dd	f	4d/ 4a 4ff#	f	4d\	Ky-	2A\	-lei-	f	2f#\	-lei-	.	4dd\	Ky-	.	4f#/	4dd\	1ryy	1ryy
8D\	.	.	.	.	.	.	.	.	.	.	.	.	.	.	.	.	.	.	.	.	.
8D\	.	.	4d/ 4dd	.	4d/ 4a 4ff#	.	4d\	-ri-	.	.	.	.	.	.	4dd\	-ri-	.	4f#/	4dd\	.	.
8D\J	.	.	.	.	.	.	.	.	.	.	.	.	.	.	.	.	.	.	.	.	.
8D\L	.	.	4d/ 4dd	.	4d/ 4a 4ff#	.	4d\	-e	4A\	-son	.	4f#\	-son	.	4dd\	-e	.	4f#/	4dd\	.	.
8D\	.	.	.	.	.	.	.	.	.	.	.	.	.	.	.	.	.	.	.	.	.
8D\	.	.	8r	.	8r	.	4r	.	4r	.	.	4r	.	.	4r	.	.	4r	4r	.	.
8D\J	.	.	8f#/	.	8a\	p	.	.	.	.	.	.	.	.	.	.	.	.	.	.	.
*	*	*	*	*	*	*	*	*	*	*	*	*	*	*	*	*Xij	*	*	*	*	*
!	!	!	!	!	!	!	!	!	!	!	!	!	!	!	!	!	!	!LO:LB:g=original	!LO:LB:g=original	!	!
=92	=92	=92	=92	=92	=92	=92	=92	=92	=92	=92	=92	=92	=92	=92	=92	=92	=92	=92	=92	=92	=92
!	!	!	!	!	!	!	!	!	!	!	!LO:DY:a:rj	!	!	!	!	!	!	!	!	!	!
8D\L	.	p	(8f#/L	p	(8a\L	.	1r	.	1F#	Ky-	p	1a	e-	.	1r	.	.	1r	1r	1ryy	1ryy
8D\	.	.	8a/)	.	8dd\)	.	.	.	.	.	.	.	.	.	.	.	.	.	.	.	.
8D\	.	.	(8f#/	.	(8a\	.	.	.	.	.	.	.	.	.	.	.	.	.	.	.	.
8D\J	.	.	8a/J)	.	8dd\J)	.	.	.	.	.	.	.	.	.	.	.	.	.	.	.	.
8D\L	.	.	(8f#/L	.	(8a\L	.	.	.	.	.	.	.	.	.	.	.	.	.	.	.	.
8D\	.	.	8a/)	.	8dd\)	.	.	.	.	.	.	.	.	.	.	.	.	.	.	.	.
8D\	.	.	8dd/	.	(8ff#\	.	.	.	.	.	.	.	.	.	.	.	.	.	.	.	.
8D\J	.	.	8ff#/J	.	8aa\J)	.	.	.	.	.	.	.	.	.	.	.	.	.	.	.	.
=93	=93	=93	=93	=93	=93	=93	=93	=93	=93	=93	=93	=93	=93	=93	=93	=93	=93	=93	=93	=93	=93
!	!	!	!	!	!	!	!	!	!	!	!LO:DY:a:rj	!	!	!	!	!	!	!	!	!	!
*	*	*	*	*	*	*	*	*ij	*	*	*	*	*	*	*	*	*	*	*	*	*
!	!	!LO:DY:t=for	!	!	!	!	!	!	!	!	!	!	!	!	!	!	!	!	!	!	!
8D\L	.	f	4d/ 4a 4ff#	f	4d\ 4a 4aa	f	4d\	Ky-	2d\	-ri-	f	2a\	-lei-	.	4ff#\	Ky-	.	4f#/	4dd\	1ryy	1ryy
8D\	.	.	.	.	.	.	.	.	.	.	.	.	.	.	.	.	.	.	.	.	.
8D\	.	.	4d/ 4a 4ff#	.	4d\ 4a 4aa	.	4d\	-ri-	.	.	.	.	.	.	4ff#\	-ri-	.	4f#/	4dd\	.	.
8D\J	.	.	.	.	.	.	.	.	.	.	.	.	.	.	.	.	.	.	.	.	.
8D\L	.	.	4d/ 4a 4ff#	.	4d\ 4a 4aa	.	4d\	-e	4d\	-e	.	4a\	.	.	4ff#\	-e	.	4f#/	4dd\	.	.
8D\	.	.	.	.	.	.	.	.	.	.	.	.	.	.	.	.	.	.	.	.	.
8D\	.	.	8r	.	8r	.	4r	.	4r	.	.	4r	.	.	4r	.	.	4r	4r	.	.
8D\J	.	.	8f#/	.	8dd\	.	.	.	.	.	.	.	.	.	.	.	.	.	.	.	.
*	*	*	*	*	*	*	*	*Xij	*	*	*	*	*	*	*	*	*	*	*	*	*
=94	=94	=94	=94	=94	=94	=94	=94	=94	=94	=94	=94	=94	=94	=94	=94	=94	=94	=94	=94	=94	=94
!	!	!	!	!	!	!	!	!	!	!	!LO:DY:a:rjt=p:	!	!	!	!	!	!	!LO:TX:a:t=1	!	!	!
8D\L	.	p	(8f#/L	.	(8dd\L	p	1r	.	1d	e-	p	1f#	.	.	1r	.	.	1r	1r	1ryy	1ryy
8D\	.	.	8a/)	.	8ff#\)	.	.	.	.	.	.	.	.	.	.	.	.	.	.	.	.
8D\	.	.	(8f#/	.	(8dd\	.	.	.	.	.	.	.	.	.	.	.	.	.	.	.	.
8D\J	.	.	8a/J)	.	8ff#\J)	.	.	.	.	.	.	.	.	.	.	.	.	.	.	.	.
8D\L	.	.	(8f#/L	.	(8dd\L	.	.	.	.	.	.	.	.	.	.	.	.	.	.	.	.
8D\	.	.	8a/)	.	8ff#\)	.	.	.	.	.	.	.	.	.	.	.	.	.	.	.	.
8D\	.	.	(8f#/	.	(8aa\	.	.	.	.	.	.	.	.	.	.	.	.	.	.	.	.
8D\J	.	.	8a/J)	.	8ddd\J)	.	.	.	.	.	.	.	.	.	.	.	.	.	.	.	.
!	!	!	!	!	!LO:LB:g=original	!	!	!	!	!	!	!	!	!	!	!	!	!	!	!	!
=95	=95	=95	=95	=95	=95	=95	=95	=95	=95	=95	=95	=95	=95	=95	=95	=95	=95	=95	=95	=95	=95
!	!	!LO:DY:t=fo.	!	!	!	!	!	!	!	!	!LO:DY:a:rj:t=for	!	!	!	!	!	!	!	!	!	!
8D\L	.	f	4d/ 4a 4ff#	.	4d\ 4a 4ddd	f	4d\	e-	2A\	-lei-	f	4f#\	.	.	4ff#\	e-	.	4f#/	4dd\	1ryy	1ryy
8D\	.	.	.	.	.	.	.	.	.	.	.	.	.	.	.	.	.	.	.	.	.
8D\	.	.	4d/ 4a 4ff#	.	4d\ 4a 4ddd	.	4d\	-lei-	.	.	.	4f#\	.	.	4ff#\	-lei-	.	4f#/	4dd\	.	.
8D\J	.	.	.	.	.	.	.	.	.	.	.	.	.	.	.	.	.	.	.	.	.
*Xtremolo	*	*	*	*	*	*	*	*	*	*	*	*	*	*	*	*	*	*	*	*	*
4D\	.	.	4d/ 4a 4ff#	.	4d\ 4a 4ddd	.	4d\	-son.	4A\	-son	.	4f#\	-son	.	4ff#\	-son	.	4f#/	4dd\	.	.
4r	.	.	4r	.	4r	.	4r	.	4r	.	.	4r	.	.	4r	.	.	4r	4r	.	.
!	!	!	!LO:TX:b:t=Sequa Pa(ter)	!	!	!	!	!	!	!	!	!LO:TX:b:t=V&colon; C&colon;	!	!	!LO:TX:b:t=Sequa Pater	!	!	!	!	!	!
==	==	==	==	==	==	==	==	==	==	==	==	==	==	==	==	==	==	==	==	==	==
*-	*-	*-	*-	*-	*-	*-	*-	*-	*-	*-	*-	*-	*-	*-	*-	*-	*-	*-	*-	*-	*-
!!!system-decoration: [(s1,s2)][(s3,s4)][(s5,s6,s7,s8)][(s9,s10,s11)]
!!!EED: Leszek Kubiak
!!!EST: 2020-07-13
!!!ENC: Mateusz Solarz
!!!END: 2020-05-30
